!!!!SEGMENT: pl-kj--bj-muz-10210-iii-1_zarebski-juliusz--chant-du-depart-op-23-no-1.krn
!!!cenid: 18xx:3546
!!!COM: Zarębski, Juliusz
!!!COM-rismID: pe30020631
!!!CDT: 1854/02/28-1885/09/15
!!!CNT:
!!!OTL: Chant du départ op. 23 no. 1
!!!PDT:
!!!AGN:
!!!SMS-siglum: PL-Kj
!!!SMS-shelfmark: BJ Muz. 10210 III 1
!!!SMS-shelfwork: W
!!!SMS-variant:
!!!SMS-altvar:
!!!NIFC-rismSourceID:
!!!NIFC-rismChildID:
!!!NIFC-islandoraID: none
!!!URL-pdf-islandora:
!!!URL-scan: https://polona2.pl/item/a-travers-pologne-danses-et-melodies-pour-piano-a-quatre-mains-oeuvre-23-no-1-chant,Nzg3MjM4MjA/1 @EN{Scan on Polona} @PL{Skany w portalu Polona}
!!!IIIF:
!!!ONB-nifc:
!!!AIN: 3 piano
!!!key:
**kern	**kern	**dynam	**mod-dynam	**kern	**fing	**kern	**fing	**dynam	**mod-dynam
*part4	*part3	*part3	*part3	*part1	*part1	*part1	*part1	*part1	*part1
*staff4	*staff3	*	*	*staff2	*staff2	*staff1	*staff1	*staff1	*staff1
*Ipiano	*Ipiano	*	*	*Ipiano	*	*Ipiano	*	*	*
*I"Piano Secondo	*I"Piano Secondo	*	*	*I"Piano Primo.	*	*I"Piano Primo.	*	*	*
*mI"Pianoforte II	*mI"Pianoforte II	*	*	*mI"Pianoforte I	*	*mI"Pianoforte I	*	*	*
*	*I'pf 2	*	*	*	*	*I'pf 1	*	*	*
*clefF4	*clefF4	*	*	*clefG2	*	*clefG2	*	*	*
*k[f#c#g#]	*k[f#c#g#]	*	*	*k[f#c#g#]	*	*k[f#c#g#]	*	*	*
*A:	*A:	*	*	*A:	*	*A:	*	*	*
*M2/4	*M2/4	*	*	*M2/4	*	*M2/4	*	*	*
=1	=1	=1	=1	=1	=1	=1	=1	=1	=1
!	!LO:MO:mod=!LO&colon;TX&colon;a&colon;B&colon;t=Allegretto	!	!	!	!	!LO:MO:mod=!LO&colon;TX&colon;a&colon;B&colon;t=Allegretto	!	!	!
!	!LO:TX:a:b:i:t=Allegretto.	!	!	!	!	!LO:TX:a:b:i:t=Allegretto.	!	!	!
2AA/ 2AAA/	8r	p	p	4r	.	8e'/L	.	p	p
.	8c#\ 8A\ 8E\	.	.	.	.	8e'/J	.	.	.
.	4c#\ 4A\ 4E\	.	.	4e/	.	(8a^\L	.	.	.
.	.	.	.	.	.	16cc#\L	.	.	.
.	.	.	.	.	.	16ee\JJ	.	.	.
=2	=2	=2	=2	=2	=2	=2	=2	=2	=2
!	!	!	!	!	!	!LO:SIC:s=8dd'\L):v	!	!	!
2AA/ 2AAA/	8r	.	.	8r	.	8dd\L)	.	.	.
.	8d\ 8G#\ 8E\	.	.	8e'/	.	8b'\J	.	.	.
.	4c#\ 4A\ 4E\	.	.	4e/	.	(8cc#^\L	.	.	.
.	.	.	.	.	.	8a\J	.	.	.
=3	=3	=3	=3	=3	=3	=3	=3	=3	=3
2AA/ 2AAA/	8r	.	.	4r	.	8e'/L)	.	.	.
.	8c#\ 8A\ 8E\	.	<	.	.	8e'/J	.	<	<
.	4c#\ 4A\ 4E\	.	.	4e/	.	(8a^\L	.	.	.
.	.	.	.	.	.	16cc#\L	.	.	.
.	.	.	.	.	.	16ee\JJ	.	.	.
=4	=4	=4	=4	=4	=4	=4	=4	=4	=4
4AA/ 4AAA/	8r	.	.	8r	.	8dd'\L)	.	.	.
.	8d\ 8G#\ 8E\	.	.	8e'/	.	8b'\J	.	.	.
4AA/ 4AAA;/	4c#\ 4A\ 4E;\	.	[	4a/ 4e;/	.	4ee;\	.	[	[
=5	=5	=5	=5	=5	=5	=5	=5	=5	=5
8r	(4d\ 4F#\	.	.	4a/ 4f#^/	.	8.ff#^\L	.	.	.
8AA/ 8AAA'/	.	.	.	.	.	.	.	.	.
.	.	.	.	.	.	16dd\Jk	.	.	.
8r	4c#\ 4A\	.	.	4a/ 4e^/	.	8.ee^\L	.	.	.
!LO:SIC:s=8A\ 8AA\':v	!	!	!	!	!	!	!	!	!
8A\ 8AA\	.	.	.	.	.	.	.	.	.
.	.	.	.	.	.	16cc#\Jk	.	.	.
=6	=6	=6	=6	=6	=6	=6	=6	=6	=6
8r	4d\ 4F#\	.	.	4a/ 4f#/	.	8dd'\L	.	.	.
8AA/ 8AAA'/	.	.	.	.	.	(16dd\L	.	.	.
.	.	.	.	.	.	16ff#\JJ	.	.	.
8r	4c#\ 4E\)	.	.	4a/ 4e/	.	8ee'\L)	.	.	.
8AA/ 8AAA'/	.	.	.	.	.	8cc#'\J	.	.	.
!LO:LB:g=original	!	!	!	!LO:LB:g=original	!	!	!	!	!
=7	=7	=7	=7	=7	=7	=7	=7	=7	=7
4BB/ 4BBB/	8r	.	.	2r	.	(16dd\LL	.	.	.
.	.	.	.	.	.	16cc#\	.	.	.
.	8d\ 8F#'\	.	.	.	.	16b\	.	.	.
.	.	.	.	.	.	16a\JJ	.	.	.
4E/ 4EE/	4d\ 4G#\	.	.	.	.	8g#'/L)	.	.	.
.	.	.	.	.	.	8e'/J	.	.	.
=8	=8	=8	=8	=8	=8	=8	=8	=8	=8
8r	8r	.	.	2r	.	8f#'/L	.	.	.
8E/ 8EE'/	8d\ 8B'\	.	.	.	.	8g#'/J	.	.	.
4E/ 4AA/	4c#\ 4A\	.	.	.	.	(16a\LL	.	<	<
.	.	.	.	.	.	16b\	.	.	.
.	.	.	.	.	.	16cc#\	.	.	.
.	.	.	.	.	.	16ee\JJ)	.	.	.
=9	=9	=9	=9	=9	=9	=9	=9	=9	=9
8r	8r	<	.	(16f#/LL	.	(16ff#\LL	.	.	.
.	.	.	.	16g#/J	.	16gg#\J	.	.	.
8E/L 8AA'/	8c#\L 8A'\	.	<	8a'/J)	.	8aa'\J)	.	.	.
8E/ 8EE'/	8d\ 8B'\	.	.	(16f#/LL	.	(16ff#\LL	.	.	.
.	.	.	.	16g#/J	.	16gg#\J	.	.	.
!LO:SIC:s=8E/J 8AA/':v	!	!	!	!	!	!	!	!	!
8E/J 8AA/	8c#\J 8A'\	[[	[[	8a'/J)	.	8aa'\J)	.	[[	[[
=10	=10	=10	=10	=10	=10	=10	=10	=10	=10
8E/L 8EE'/	8d\L 8B'\	>	>	(16f#/LL	.	(16ff#\LL	.	>	>
.	.	.	.	16g#/	.	16gg#\	.	.	.
8E/J 8AA'/	8c#\J 8A'\	.	.	16a/	.	16aa\	.	.	.
.	.	.	.	16cc#/JJ	.	16ccc#\JJ	.	.	.
4F#/ 4BB/	4d#X\ 4A\	]]	.	16b/)	.	16bb\LL	.	.	.
.	.	.	.	16r	.	16aa\	.	.	.
.	.	.	.	8r	.	16gg#\	.	.	.
.	.	.	]	.	.	16ff#\JJ)	.	]]	]]
=11	=11	=11	=11	=11	=11	=11	=11	=11	=11
2E/ 2EE/	8r	p	p	8r	.	8b'\L	.	p	p
.	8e\ 8B'\	.	.	8g#'/	.	8b'\J	.	.	.
.	4e\ 4A#X\	.	.	4cc#/ 4g#/	.	(8ee^\L	.	.	.
.	.	.	.	.	.	16gg#\L	.	.	.
.	.	.	.	.	.	16ccc#\JJ	.	.	.
=12	=12	=12	=12	=12	=12	=12	=12	=12	=12
2E/ 2EE/	8r	.	.	8r	.	8aan'\L)	.	.	.
.	8d#X\ 8B\ 8An'\	.	.	8b/ 8a'/	.	8ff#'\J	.	.	.
.	4e\ 4B\ 4G#\	.	.	4b/ 4g#/	.	(8gg#^\L	.	.	.
.	.	.	.	.	.	8ee\J	.	.	.
!	!	!	!	!LO:LB:g=original	!	!	!	!	!
=13	=13	=13	=13	=13	=13	=13	=13	=13	=13
2E/ 2EE/	8r	.	.	8r	.	8b'\L)	.	.	.
.	8e\ 8B'\	.	.	8g#'/	.	8b'\J	.	.	.
.	4e\ 4A#X\	.	.	4cc#/ 4g#/	.	(8ee^\L	.	.	.
.	.	.	.	.	.	16gg#\L	.	.	.
.	.	.	.	.	.	16ccc#\JJ	.	.	.
!LO:LB:g=original	!	!	!	!	!	!	!	!	!
=14	=14	=14	=14	=14	=14	=14	=14	=14	=14
2E/ 2EE;/	8r	.	.	8r	.	8aan'\L)	.	.	.
.	8d#X\ 8A#X'\	.	.	8b/ 8a'/	.	8ff#'\J	.	.	.
.	4dn\ 4G#';\	.	.	4ddn/ 4g#;/	.	4bb\ 4ee;\	.	.	.
=15	=15	=15	=15	=15	=15	=15	=15	=15	=15
!	!	!	!	!	!	!LO:TX:b:i:t=marcato	!	!	!
!	!LO:MO:mod=!LO&colon;TX&colon;b&colon;i&colon;t=marcato	!	!	!	!	!	!	!	!
!	!null	!	!	!	!	!	!	!	!
8r	(8f#\L 8c#^\	.	.	8cc#'\L	.	(16ccc#\LL	.	.	.
.	.	.	.	.	.	16ddd\	.	.	.
8AA/ 8AAA'/	8e\J 8A'\)	.	.	8ee\J 8cc#'^\	.	16ccc#'^\)	.	.	.
.	.	.	.	.	.	32r	.	.	.
.	.	.	.	.	.	32aa\JJk	.	.	.
8r	(8f#\L 8B^\	.	.	8b'\L	.	(16bb\LL	.	.	.
.	.	.	.	.	.	16ccc#\	.	.	.
8E/ 8EE'/	8e\J 8G#'\)	.	.	8ee\J 8b'^\	.	16bb'^\)	.	.	.
.	.	.	.	.	.	32r	.	.	.
.	.	.	.	.	.	32gg#\JJk	2	.	.
=16	=16	=16	=16	=16	=16	=16	=16	=16	=16
!	!	!	!	!	!	!LO:TUP:a	!	!	!
8r	(8f#\L 8c#^\	.	.	8a'\L	.	(24aa\LL	1	.	.
.	.	.	.	.	.	24bb\	.	.	.
.	.	.	.	.	.	24ccc#\	.	.	.
8AA/ 8AAA'/	8e\J 8A'\)	.	.	8ee\J 8cc#'\	.	16bb'\)	.	.	.
.	.	.	.	.	.	32r	.	.	.
.	.	.	.	.	.	32aa\JJk	3	.	.
8r	(8f#\L 8B^\	.	.	8r	.	(8bb^\L	.	.	.
8E/ 8EE'/	8e\J 8G#'\)	.	.	8ee\ 8b'\	.	8gg#\J)	.	.	.
=17	=17	=17	=17	=17	=17	=17	=17	=17	=17
8FF#/ 8FFF#/	8r	.	.	8r	.	(16aa\LL	.	.	.
.	.	.	.	.	.	16gg#\)	.	.	.
.	.	.	.	.	.	8qgg#/	.	.	.
8r	8c#\ 8F#'\	.	.	8cc#/ 8a'/	.	(16ff#\	.	.	.
.	.	.	.	.	.	16ee\JJ)	.	.	.
[4BB/ [4BBB/	(16d#X\LL 16B\ 16F#\	.	.	8a'/	.	8dd#X'\L	.	.	.
.	16A#X\	.	.	.	.	.	.	.	.
.	16B\	.	.	8r	.	8b'\J	.	.	.
.	16A#\JJ	.	.	.	.	.	.	.	.
!	!	!	!	!LO:LB:g=original	!	!	!	!	!
=18	=18	=18	=18	=18	=18	=18	=18	=18	=18
8BB/]L 8BBB/]	16An\LL	.	<	8a/L 8f#'/	3 1	8cc#'\L	.	<	<
.	16G#\	.	.	.	.	.	.	.	.
8BB/J 8BBB/	16F#\	.	.	8a/J 8f#'/	.	8dd#X'\J	.	.	.
.	16B\JJ	.	.	.	.	.	.	.	.
[4E/ [4EE/	16A\LL	<	.	(8.e/L	.	(8.ee\L	.	.	.
.	16G#\	.	.	.	.	.	.	.	.
.	16F#\	.	.	.	.	.	.	.	.
.	16E\JJ)	.	.	16f#/Jk	.	16ff#\Jk	.	.	.
!LO:LB:g=original	!	!	!	!	!	!	!	!	!
=19	=19	=19	=19	=19	=19	=19	=19	=19	=19
2E/_ 2EE/_	(16dn\LL	.	.	8.g#/L	.	8.gg#\L	.	.	.
.	16c#\	.	.	.	.	.	.	.	.
.	16B\	.	.	.	.	.	.	.	.
.	16A\JJ	.	.	16a/Jk	.	16aa\Jk	.	.	.
.	16f#\LL	.	.	8.b\L	.	8.bb\L	.	.	.
.	16e\	.	.	.	.	.	.	.	.
.	16d\	.	.	.	.	.	.	.	.
.	16c#\JJ	[[	[[	16cc#\Jk)	.	16ccc#\Jk)	.	[[	[[
=20	=20	=20	=20	=20	=20	=20	=20	=20	=20
4.E/] 4.EE/]	16B\LL	.	.	(16dd\LL	1	(16ddd\LL	.	.	.
.	16A#X\	.	.	16dd#X\	3	16ddd#X\	.	.	.
.	16An\	.	.	16ff#\	2	16fff#\	.	.	.
.	16G#\JJ	.	.	16ee\JJ	1	16eee\JJ	.	.	.
.	16F#\LL	.	.	16ddn\LL	.	16dddn\LL	.	.	.
.	16E\J	.	.	16cc#\	.	16ccc#\	.	.	.
8E/ 8EE'/	8d\J 8G#'\)	.	.	16b\	.	16bb\	.	.	.
.	.	.	.	16ee\JJ)	.	16eee\JJ)	.	.	.
=21	=21	=21	=21	=21	=21	=21	=21	=21	=21
8AA/L 8AAA'/	(16e\LL	f	f	8r	.	8ee'\L	.	f	f
.	16d#X\)	.	.	.	.	.	.	.	.
8E'/J	(16d#\	.	.	8a'/	.	8ee'\J	.	.	.
.	16dn\JJ)	.	.	.	.	.	.	.	.
4E^\	(16d\LL	.	.	(8a^\L	.	(8aa\L 8ee^\	.	.	.
.	16c#\)	.	.	.	.	.	.	.	.
.	(16c#\	.	.	16cc#\L	.	16ccc#\L	.	.	.
.	16B\JJ)	.	.	16ee\JJ	.	16eee\JJ	.	.	.
=22	=22	=22	=22	=22	=22	=22	=22	=22	=22
8AA/L 8AAA'/	(16B\LL	.	.	8dd/L 8f#'/)	.	8ddd\L 8aa'\)	.	.	.
.	16A\)	.	.	.	.	.	.	.	.
8E'/J	(16A\	.	.	8b/J 8g#'/	.	8ddd\J 8bb'\	.	.	.
.	16G#\JJ)	.	.	.	.	.	.	.	.
4E^\	(16G#\LL	.	.	4cc#/ 4a^/	.	(8ccc#\L 8ee^\	.	.	.
.	16F#\	.	.	.	.	.	.	.	.
.	16E\	.	.	.	.	8aa'\J)	.	.	.
.	16c#\JJ)	.	.	.	.	.	.	.	.
=23	=23	=23	=23	=23	=23	=23	=23	=23	=23
8AA/L 8AAA'/	(16e\LL	.	.	8r	.	8ee'\L	.	.	.
.	16d#X\)	.	.	.	.	.	.	.	.
8E'/J	(16d#\	.	.	8a'/	.	8ee'\J	.	.	.
.	16dn\JJ)	.	.	.	.	.	.	.	.
4E^\	(16d\LL	.	.	(8a^\L	.	(8aa\L 8ee^\	.	.	.
.	16c#\)	.	.	.	.	.	.	.	.
.	(16c#\	.	.	16cc#\L	.	16ccc#\L	.	.	.
.	16B\JJ)	.	.	16ee\JJ	.	16eee\JJ	.	.	.
!LO:LB:g=original	!	!	!	!LO:LB:g=original	!	!	!	!	!
=24	=24	=24	=24	=24	=24	=24	=24	=24	=24
8AA/L 8AAA'/	(16B\LL	.	.	8dd/L 8f#'/)	.	8ddd\L 8ff#'\)	.	.	.
.	16A\)	.	.	.	.	.	.	.	.
8E'/J	(16A\	.	.	8b/J 8g#'/	.	8bb\J 8gg#'\	.	.	.
.	16G#\JJ)	.	.	.	.	.	.	.	.
4E^\	(16G#\LL	.	.	4cc#/ 4a^/	.	4eee\ 4aa\ 4ee^\	.	.	.
.	16F#\	.	.	.	.	.	.	.	.
.	16E\	.	.	.	.	.	.	.	.
.	16c#\JJ)	.	.	.	.	.	.	.	.
=25	=25	=25	=25	=25	=25	=25	=25	=25	=25
8r	(16d\LL	.	.	8ff#\L 8dd'\	.	8.fff#\L 8.ddd\	.	.	.
.	16f#\	.	.	.	.	.	.	.	.
8FF#/L 8FFF#'/	16F#\	.	.	8dd\J 8b'\	.	.	.	.	.
.	16f#\JJ)	.	.	.	.	16ddd\Jk 16bb\	.	.	.
8GG#/ 8GGG#'/	(16c#\LL	.	.	8ee\L 8cc#'\	.	8.eee\L 8.ccc#\	.	.	.
.	16e\	.	.	.	.	.	.	.	.
8AA#X/J 8AAA#X'/	16F#\	.	.	8cc#\J 8a#X'\	.	.	.	.	.
.	16e\JJ)	.	.	.	.	16ccc#\Jk 16aa#X\	.	.	.
=26	=26	=26	=26	=26	=26	=26	=26	=26	=26
8BB/L 8BBB'/	(16B\LL	.	.	8dd\L 8b'\	.	8ddd\L 8bb'\	.	.	.
.	16d\	.	.	.	.	.	.	.	.
8GG#/J 8GGG#'/	16F#\	.	.	(16dd\L 16b\	.	(16ddd\L 16bb\	.	.	.
.	16d\JJ)	.	.	16ff#\JJ	.	16fff#\JJ	.	.	.
8AA#X/L 8AAA#X'/	(16c#\LL	.	.	8ee\L 8cc#'\)	.	8eee\L 8ccc#'\)	.	.	.
.	16e\	.	.	.	.	.	.	.	.
8FF#/J 8FFF#'/	16F#\	.	.	8cc#\J 8a#X'\	.	8ccc#\J 8aa#X'\	.	.	.
.	16e\JJ)	.	.	.	.	.	.	.	.
=27	=27	=27	=27	=27	=27	=27	=27	=27	=27
4BB/ 4BBB/	8r	.	.	(16dd\LL	.	(16ddd\LL	.	.	.
.	.	.	.	16cc#\	.	16ccc#\	.	.	.
.	8d\ 8F#'\	.	.	16b\	.	16bb\	.	.	.
.	.	.	.	16a#X\JJ	.	16aa#X\JJ	.	.	.
4E/ 4EE/	8r	.	.	8g#'/L)	.	8gg#'\L)	.	.	.
.	8d\ 8G#'\	.	.	8dd/J 8g#'/	.	8ee'\J	.	.	.
=28	=28	=28	=28	=28	=28	=28	=28	=28	=28
8E/L 8EE'/	8d\L 8G#'\	.	.	8dd\L 8g#'\	.	8ff#'\L	.	.	.
8E/J 8EE'/	8d\J 8G#'\	.	.	8dd\J 8g#'\	.	8gg#\J 8ee'\	.	.	.
4AA/ 4AAA^/	4c#\ 4A^\	.	.	4cc#\ 4a^\	.	4aa\ 4ee^\	.	.	.
!LO:PB:g=original	!	!	!	!LO:PB:g=original	!	!	!	!	!
=29||	=29||	=29||	=29||	=29||	=29||	=29||	=29||	=29||	=29||
!	!LO:MO:mod=!LO&colon;TX&colon;a&colon;B&colon;t=Poco più animato	!	!	!	!	!LO:MO:mod=!LO&colon;TX&colon;a&colon;B&colon;t=Poco più animato	!	!	!
!	!LO:TX:a:B:t=Poco piu animato.	!	!	!	!	!LO:TX:a:B:t=Poco piu animato.	!	!	!
4r	4r	.	.	4r	.	8ff#'\L	.	f	f
.	.	.	.	.	.	8gg#'\J	.	.	.
4C#/ 4CC#^/	4e#X\ 4B^\	.	f	4ee#X\ 4b\	.	8.aa^\L	.	.	.
.	.	.	.	.	.	16ccc#\Jk	.	.	.
=30	=30	=30	=30	=30	=30	=30	=30	=30	=30
4r	4r	.	.	4r	.	(16aa\LL	.	.	.
.	.	.	.	.	.	16gg#\	.	.	.
.	.	.	.	.	.	16ff#\	.	.	.
.	.	.	.	.	.	16ee#X\JJ	.	.	.
4D/ 4DD^/	4f#\ 4d\ 4A^\	.	.	4dd\ 4a^\	.	8.aa^\L	.	.	.
.	.	.	.	.	.	16gg#\Jk)	.	.	.
=31	=31	=31	=31	=31	=31	=31	=31	=31	=31
4r	4r	.	.	4r	.	8ff#'\L	.	.	.
.	.	.	.	.	.	8gg#'\J	.	.	.
4D#X/ 4DD#X^/	4f#\ 4c#\ 4A^\	.	.	4cc#/ 4a^/	.	8.aa^\L	.	.	.
.	.	.	.	.	.	16ccc#\Jk	.	.	.
=32	=32	=32	=32	=32	=32	=32	=32	=32	=32
4E/ 4EE/	8r	.	.	8r	.	(16bb\LL	.	.	.
.	.	.	.	.	.	16aa\	.	.	.
.	8c#\ 8A'\	.	.	8cc#\ 8a'\	.	16gg#\	.	.	.
.	.	.	.	.	.	16ff#\JJ	.	.	.
4E#X/ 4EE#X^/	4c#\ 4A^\	.	.	4cc#\ 4a^\	.	4aa^\)	.	.	.
=33	=33	=33	=33	=33	=33	=33	=33	=33	=33
8En/ 8EEn'/	(16d\LL	p	p	8f#'/L	.	8ff#'\L	.	p	p
.	16c#\	.	.	.	.	.	.	.	.
8r	16B\	.	.	8g#'/J	.	8gg#'\J	.	.	.
.	16A\JJ	.	.	.	.	.	.	.	.
!LO:SIC:s=8AA/ 8AAA/':v	!	!	!	!	!	!	!	!	!
8AA/ 8AAA/	8e\ 8c#'\)	.	.	8.a^/L	.	8.aa^\L	.	.	.
8r	8r	.	.	.	.	.	.	.	.
.	.	.	.	16cc#/Jk	.	16ccc#\Jk	.	.	.
!	!	!	!	!LO:LB:g=original	!	!	!	!	!
=34	=34	=34	=34	=34	=34	=34	=34	=34	=34
8C#/ 8CC#'/	(16c#\LL	.	.	(16a/LL	.	(16aa\LL	.	.	.
.	16B\	.	.	16g#/	.	16gg#\	.	.	.
8r	16A\	.	.	16f#/	.	16ff#\	.	.	.
.	16G#\JJ	.	.	16e#X/JJ	.	16ee#X\JJ	.	.	.
8FF#/ 8FFF#'/	8c#\ 8A'\)	.	.	8.a^/L	.	8.aa^\L	.	.	.
8ryy	8r	.	.	.	.	.	.	.	.
.	.	.	.	16g#/Jk)	.	16gg#\Jk)	.	.	.
!LO:LB:g=original	!	!	!	!	!	!	!	!	!
=35	=35	=35	=35	=35	=35	=35	=35	=35	=35
8E/ 8EE'/	(16d\LL	.	.	8f#'/L	.	8ff#'\L	.	.	.
.	16c#\	.	.	.	.	.	.	.	.
8r	16B\	.	.	8g#'/J	.	8gg#'\J	.	.	.
.	16A\JJ	.	.	.	.	.	.	.	.
8AA/ 8AAA'/	8e\ 8c#'\)	.	.	8.a^/L	.	8.aa^\L	.	.	.
8r	8r	.	.	.	.	.	.	.	.
.	.	.	.	16cc#/Jk	.	16ccc#\Jk	.	.	.
=36	=36	=36	=36	=36	=36	=36	=36	=36	=36
8C#/ 8CC#'/	(16d\LL	.	.	(16b/LL	.	(16bb\LL	.	.	.
.	16c#\	.	.	16a/	.	16aa\	.	.	.
8r	16B\	.	.	16g#/	.	16gg#\	.	.	.
.	16A\JJ)	.	.	16f#/JJ	.	16ff#\JJ	.	.	.
!LO:SIC:s=4FF#/ 4FFF#/':v	!LO:SIC:s=4c#\ 4A\':v	!	!	!	!	!	!	!	!
4FF#/ 4FFF#/	4c#\ 4A\	.	.	4a^/)	.	4aa^\)	.	.	.
=37	=37	=37	=37	=37	=37	=37	=37	=37	=37
!	!LO:MO:mod=!null:null	!	!	!	!	!LO:MO:mod=!null:null	!	!	!
!	!LO:TX:b:i:t=sempre	!	!	!	!	!LO:TX:b:i:t=sempre	!	!	!
!	!	!	!LO:DY:t=sempre p	!	!	!	!	!	!LO:DY:t=sempre p
[2AA/ [2AAA/	8r	p	p	2r	.	8a'/L	.	.	p
.	8e\ 8c#\ 8A\ 8Gn'\	.	.	.	.	8b'/J	.	.	.
.	4e\ 4c#\ 4A\ 4G^\	.	.	.	.	8.cc#^\L	.	p	.
.	.	.	.	.	.	16ee\Jk	.	.	.
=38	=38	=38	=38	=38	=38	=38	=38	=38	=38
2AA/_ 2AAA/_	8e\L 8c#\ 8A\ 8Gn\	.	.	2r	.	(16cc#\LL	.	.	.
.	.	.	.	.	.	16b\	.	.	.
.	8e\J 8c#\ 8A\ 8G\	.	.	.	.	16a\	.	.	.
.	.	.	.	.	.	16gn\JJ	.	.	.
.	4e\ 4c#\ 4A\ 4G^\	.	.	.	.	8.cc#^\L	.	.	.
.	.	.	.	.	.	16b\Jk)	.	.	.
=39	=39	=39	=39	=39	=39	=39	=39	=39	=39
2AA/_ 2AAA/_	8e\L 8c#\ 8A\ 8Gn\	.	.	2r	.	8a'/L	.	.	.
.	8e\J 8c#\ 8A\ 8G\	.	.	.	.	8b'/J	.	.	.
.	4e\ 4c#\ 4A\ 4G^\	.	.	.	.	8.cc#^\L	.	.	.
.	.	.	.	.	.	16ee\Jk	.	.	.
!	!	!	!	!	!	!LO:LB:g=original	!	!	!
=40	=40	=40	=40	=40	=40	=40	=40	=40	=40
2AA/] 2AAA/]	8e\L 8c#\ 8A\ 8Gn\	.	.	2r	.	(16cc#\LL	.	.	.
.	.	.	.	.	.	16b\	.	.	.
.	8e\J 8c#\ 8A\ 8G\	.	.	.	.	16a\	.	.	.
.	.	.	.	.	.	16gn\JJ	.	.	.
.	4d\ 4B\ 4G^\	.	.	.	.	4b^\)	.	.	.
!LO:LB:g=original	!	!	!	!	!	!	!	!	!
=41	=41	=41	=41	=41	=41	=41	=41	=41	=41
8r	8B\ 8Gn'\	.	.	(8.b\L 8.gn\	.	4r	.	.	.
8GGn/ 8GGGn/	8r	.	.	.	.	.	.	.	.
.	.	.	.	16dd\Jk	.	.	.	.	.
8r	(8.B\L 8.G\	.	.	8.b\L 8.g\	.	(8.bb\L 8.ggn\	.	.	.
8DD/ 8DDD/	.	.	.	.	.	.	.	.	.
.	16A#X\Jk 16F#\	.	.	16dd\Jk)	.	16ddd\Jk	.	.	.
=42	=42	=42	=42	=42	=42	=42	=42	=42	=42
8r	8B\ 8Gn'\)	.	.	(8.b\L 8.gn\	.	8bb\ 8ggn'\)	.	.	.
8GGn/ 8GGGn/	8r	.	.	.	.	8r	.	.	.
.	.	.	.	16dd\Jk	.	.	.	.	.
8r	8.B\L 8.G\	.	.	8.b\L 8.g\	.	(8.bb\L 8.gg\	.	.	.
8DD/ 8DDD/	.	.	.	.	.	.	.	.	.
.	16A#X\Jk 16F#\	.	.	16dd\Jk	.	16ddd\Jk	.	.	.
=43	=43	=43	=43	=43	=43	=43	=43	=43	=43
8r	8B\L 8Gn'\	.	.	8b\L 8gn'\)	.	8bb\L 8ggn'\)	.	.	.
8GGn/ 8GGGn/	8d\J 8B'\	.	.	8dd\J 8b'\	.	8ddd\J 8bb'\	.	.	.
8r	8d\L 8B'\	.	.	8dd\L 8b'\	.	8ddd\L 8bb'\	.	.	.
8GG/ 8GGG/	(16d\L 16B\	.	.	(16dd\L 16b\	.	(16ddd\L 16bb\	.	.	.
.	16c#\JJ 16A#X\	.	.	16cc#\JJ 16a#X\	.	16ccc#\JJ 16aa#X\	.	.	.
=44	=44	=44	=44	=44	=44	=44	=44	=44	=44
8r	8d\L 8B'\)	.	.	8dd\L 8b'\)	.	8ddd\L 8bb'\)	.	.	.
8GGn/ 8GGGn/	8e\J 8c#'\	.	.	8ee\J 8cc#'\	.	8eee\J 8ccc#'\	.	.	.
4FF#/ 4FFF#/	4c#\ 4A#X\	.	.	4cc#\ 4a#X\	.	4ccc#\ 4aa#X\	.	.	.
=45	=45	=45	=45	=45	=45	=45	=45	=45	=45
*tremolo	*	*	*	*	*	*	*	*	*
(16AAn/LL	8e\L 8c#\ 8An\ 8Gn'\	.	.	8an'/L	.	8aan'\L	.	.	.
16GG#X/	.	.	.	.	.	.	.	.	.
16AA/	8e\J 8c#\ 8A\ 8G'\	.	.	8g#X'/J	.	8bb'\J	.	.	.
16GG#/	.	.	.	.	.	.	.	.	.
16AA/	4e\ 4c#\ 4A\ 4G^\	.	.	4gn/	.	(8.ccc#\L	.	.	.
16GG#/	.	.	.	.	.	.	.	.	.
16AA/	.	.	.	.	.	.	.	.	.
16GG#/JJ)	.	.	.	.	.	16eee\Jk)	.	.	.
*Xtremolo	*	*	*	*	*	*	*	*	*
!	!	!	!	!LO:LB:g=original	!	!	!	!	!
=46	=46	=46	=46	=46	=46	=46	=46	=46	=46
(16AA/LL	8e\L 8c#\ 8A\ 8Gn'\	.	.	8gn'/L	.	(16ccc#\LL	.	.	.
16GG#X/	.	.	.	.	.	16bb\	.	.	.
16AA/	8c#\J 8A\ 8G'\	.	.	8f#'/J	.	16aa\	.	.	.
16AAA/JJ	.	.	.	.	.	16ggn\JJ	.	.	.
16AA/LL	4e\ 4c#\ 4A\ 4G\	.	.	4g/	.	8.ccc#\L	.	.	.
16GG#/	.	.	.	.	.	.	.	.	.
16AA/	.	.	.	.	.	.	.	.	.
16GG#/JJ)	.	.	.	.	.	16bb\Jk)	.	.	.
!LO:LB:g=original	!	!	!	!	!	!	!	!	!
=47	=47	=47	=47	=47	=47	=47	=47	=47	=47
*tremolo	*	*	*	*	*	*	*	*	*
(16AA/LL	8e\L 8c#\ 8A\ 8Gn'\	.	.	8a'/L	.	8aa'\L	.	.	.
16GG#X/	.	.	.	.	.	.	.	.	.
16AA/	8e\J 8c#\ 8A\ 8G'\	.	.	8g#X'/J	.	8bb'\J	.	.	.
16GG#/	.	.	.	.	.	.	.	.	.
16AA/	4e\ 4c#\ 4A\ 4G\	.	.	4gn/	.	(8.ccc#\L	.	.	.
16GG#/	.	.	.	.	.	.	.	.	.
16AA/	.	.	.	.	.	.	.	.	.
16GG#/JJ)	.	.	.	.	.	16eee\Jk)	.	.	.
*Xtremolo	*	*	*	*	*	*	*	*	*
=48	=48	=48	=48	=48	=48	=48	=48	=48	=48
(16AA/LL	8e\L 8c#\ 8A\ 8Gn'\	.	.	8gn'/L	.	(16ccc#\LL	.	.	.
16GG#X/J	.	.	.	.	.	16bb\	.	.	.
8AA'/J)	8e\J 8c#\ 8A\ 8G'\	.	.	8g'/J	.	16aa\	.	.	.
.	.	.	.	.	.	16ggn\JJ	.	.	.
4GGn/	4d\ 4B\ 4G\	.	.	4g/	.	4bb\)	.	.	.
=49	=49	=49	=49	=49	=49	=49	=49	=49	=49
8r	(16B\LL 16Gn\	.	.	(8.b/L 8.gn/	.	4r	.	.	.
.	16d\	.	.	.	.	.	.	.	.
8GGn/ 8GGGn/	16B\ 16G\	.	.	.	.	.	.	.	.
.	16D\JJ	.	.	16dd/Jk	.	.	.	.	.
8r	8.B\L 8.G^\	.	.	8.b/L 8.g/	.	(16bb\LL 16ggn\	.	.	.
.	.	.	.	.	.	16ddd\	.	.	.
8DD/ 8DDD/	.	.	.	.	.	16bb\ 16gg\	.	.	.
.	16A#X\Jk 16F#\)	.	.	16d/Jk)	.	16dd\JJ	.	.	.
=50	=50	=50	=50	=50	=50	=50	=50	=50	=50
8r	(16B\LL 16Gn\	.	.	(8.b/L 8.gn/	.	8bb\ 8ggn'\)	.	.	.
.	16d\	.	.	.	.	.	.	.	.
8GGn/ 8GGGn/	16B\ 16G\	.	.	.	.	8r	.	.	.
.	16D\JJ	.	.	16dd/Jk	.	.	.	.	.
8r	8.B\L 8.G^\	.	.	8.b/L 8.g/	.	(16bb\LL 16gg\	.	.	.
.	.	.	.	.	.	16ddd\	.	.	.
8DD/ 8DDD/	.	.	.	.	.	16bb\ 16gg\	.	.	.
.	16A#X\Jk 16F#\)	.	.	16d/Jk)	.	16dd\JJ	.	.	.
=51	=51	=51	=51	=51	=51	=51	=51	=51	=51
!	!	!	!	!	!	!LO:MO:mod=!null:null	!	!	!
!	!	!	!	!	!	!LO:TX:t=cres_:problem=dynamics with extention lines	!	!	!
!	!LO:MO:mod=!null:null	!	!	!	!	!	!	!	!
!	!	!	!	!	!	!LO:MO:mod=!null:null	!	!	!
!	!LO:TX:b:i:t=poco a poco cresc.	!	!	!	!	!LO:TX:b:i:t=poco a poco cresc.	!	!	!
!	!	!	!LO:HP:t=poco a poco cresc.	!	!	!	!	!	!LO:HP:t=poco a poco cresc.
8r	8B\L 8Gn'\	.	<	8b\L 8gn'\	.	8bb\L 8ggn'\)	.	<	<
8GGn/ 8GGGn'/	8d\J 8B'\	.	.	8dd\J 8b'\	.	8ddd\J 8bb'\	.	.	.
8r	8d\L 8B'\	.	.	8dd\L 8b'\	.	8ddd\L 8bb'\	.	.	.
!LO:SIC:s=8DD/ 8DDD/':v	!	!	!	!	!	!	!	!	!
8DD/ 8DDD/	(16d\L 16B\	.	.	(16dd\L 16b\	.	(16ddd\L 16bb\	.	.	.
.	16c#\JJ 16A#X\	.	.	16cc#\JJ 16a#X\	.	16ccc#\JJ 16aa#X\	.	.	.
!LO:LB:g=original	!	!	!	!LO:LB:g=original	!	!	!	!	!
=52	=52	=52	=52	=52	=52	=52	=52	=52	=52
!	!LO:SIC:s=8d\L 8B\)':v	!	!	!	!	!	!	!	!
8r	8d\L 8B\)	.	.	8dd\L 8b'\)	.	8ddd\L 8bb'\)	.	.	.
8FF#/ 8FFF#'/	8e\J 8cn'\	.	.	8ee\J 8ccn'\	.	8eee\J 8cccn'\	.	.	.
8r	4c\ 4A^\	.	.	4cc\ 4a^\	.	4ccc\ 4aa^\	.	[[	.
8DD/ 8DDD'/	.	.	.	.	.	.	.	.	.
=53	=53	=53	=53	=53	=53	=53	=53	=53	=53
8r	(16cn\LL 16A\	.	.	(8.ccn/L 8.a/	.	4r	.	.	.
.	16e\ 16c\	.	.	.	.	.	.	.	.
8FF#/ 8FFF#'/	16c\ 16A\	.	.	.	.	.	.	.	.
.	16E\JJ	.	.	16ee/Jk	.	.	.	.	.
8r	8.c\L 8.A^\	.	.	8.cc/L 8.a/	.	(16cccn\LL 16aa\	.	.	.
.	.	.	.	.	.	16eee\	.	.	.
8DD/ 8DDD'/	.	.	.	.	.	16ccc\ 16aa\	.	.	.
.	16B\Jk 16G#X\)	.	.	16e/Jk)	.	16ee\JJ	.	.	.
=54	=54	=54	=54	=54	=54	=54	=54	=54	=54
8r	(16cn\LL 16A\	.	.	(8.ccn/L 8.a/	.	8cccn\ 8aa'\)	.	.	.
.	16e\	.	.	.	.	.	.	.	.
8FF#/ 8FFF#'/	16c\ 16A\	.	.	.	.	8r	.	.	.
.	16E\JJ	.	.	16ee/Jk	.	.	.	.	.
8r	8.c\L 8.A^\	.	.	8.cc/L 8.a/	.	(16ccc\LL 16aa\	.	.	.
.	.	.	.	.	.	16eee\	.	.	.
8DD/ 8DDD'/	.	.	.	.	.	16ccc\ 16aa\	.	.	.
.	16B\Jk 16G#\)	.	.	16e/Jk)	.	16ee\JJ	.	.	.
!	!	!	!	!LO:LB:g=originals	!	!	!	!	!
=55	=55	=55	=55	=55	=55	=55	=55	=55	=55
8r	(8cn\L 8A\	.	.	8ccn\L 8a'\	.	8cccn\L 8aa'\)	.	.	.
8FF#/ 8FFF#/	8e\J 8c'\)	.	.	8ee\J 8cc'\	.	8eee\J 8ccc'\	.	.	.
8r	8e\L 8c'\	.	.	8ee\L 8cc'\	.	8eee\L 8ccc'\	.	.	.
8DD/ 8DDD/	(16e\L 16c\	.	.	(16ee\L 16cc\	.	(16eee\L 16ccc\	.	.	.
.	16d#X\JJ 16B\	.	.	16dd#X\JJ 16b\	.	16ddd#X\JJ 16bb\	.	.	.
=56	=56	=56	=56	=56	=56	=56	=56	=56	=56
8r	8e\L 8cn'\)	.	.	8ee\L 8ccn'\)	.	8eee\L 8cccn'\)	.	.	.
8FF#/ 8FFF#/	8f#\J 8c#X'\	.	.	8ff#\J 8ddn'\	.	8fff#\J 8dddn'\	.	.	.
8r	4e\ 4c#^\	.	.	4ee\ 4cc^\	.	4eee\ 4ccc^\	.	.	.
8FF#/ 8FFF#/	.	.	.	.	.	.	.	.	.
!LO:PB:g=original	!	!	!	!LO:PB:g=original	!	!	!	!	!
=57||	=57||	=57||	=57||	=57||	=57||	=57||	=57||	=57||	=57||
*k[f#c#g#d#a#]	*k[f#c#g#d#a#]	*	*	*k[f#c#g#d#a#]	*	*k[f#c#g#d#a#]	*	*	*
4FF#/ 4FFF#/	(16d#\LL 16B\	f	f	8dd#\L 8b'\	.	8ddd#\L 8bb'\	.	f	f
.	16f#\	.	.	.	.	.	.	.	.
.	16d#\ 16B\	.	.	8ff#\J 8dd#'\	.	8fff#\J 8ddd#'\	.	.	.
.	16F#\JJ	.	.	.	.	.	.	.	.
8BB/L 8BBB^/	16d#\LL 16B\	.	.	8ff#\L 8dd#'\	.	8fff#\L 8ddd#'\	.	.	.
.	16f#\	.	.	.	.	.	.	.	.
16AA#/L 16AAA#/	16d#\ 16B\	.	.	(16ff#\L 16dd#\	.	(16fff#\L 16ddd#\	.	.	.
16GG#/JJ 16GGG#/	16F#\JJ)	.	.	16ee#X\JJ 16cc##X\	.	16eee#X\JJ 16ccc##X\	.	.	.
=58	=58	=58	=58	=58	=58	=58	=58	=58	=58
4FF#/ 4FFF#/	(16d#\LL 16B\	.	.	8ff#\L 8dd#'\)	.	8fff#\L 8ddd#'\)	.	.	.
.	16f#\	.	.	.	.	.	.	.	.
.	16d#\ 16B\	.	.	8gg#\J 8een'\	.	8ggg#\J 8eeen'\	.	.	.
.	16F#\JJ	.	.	.	.	.	.	.	.
8BB/L 8BBB^/	16e\LL 16c#\	.	.	4ee\ 4cc#X^\	.	4eee\ 4ccc#X^\	.	.	.
.	16f#\	.	.	.	.	.	.	.	.
16AA#/L 16AAA#/	16e\ 16c#\	.	.	.	.	.	.	.	.
16GG#/JJ 16GGG#/	16F#\JJ)	.	.	.	.	.	.	.	.
=59	=59	=59	=59	=59	=59	=59	=59	=59	=59
4FF#/ 4FFF#/	(16e\LL 16c#\	.	.	8cc#\L 8a#'\	.	8ccc#\L 8aa#'\	.	.	.
.	16f#\	.	.	.	.	.	.	.	.
.	16e\ 16c#\	.	.	8cc#\ 8a#'\	.	8ccc#\ 8aa#'\	.	.	.
.	16F#\JJ	.	.	.	.	.	.	.	.
8BB/L 8BBB^/	16e\LL 16c#\	.	.	8ee\ 8cc#'\	.	8eee\ 8ccc#'\	.	.	.
.	16f#\	.	.	.	.	.	.	.	.
16AA#/L 16AAA#/	16e\ 16c#\	.	.	8gg#\J 8ee'\	.	8ggg#\J 8eee'\	.	.	.
16GG#/JJ 16GGG#/	16F#\JJ)	.	.	.	.	.	.	.	.
=60	=60	=60	=60	=60	=60	=60	=60	=60	=60
4FF#/ 4FFF#/	(16e\LL 16c#\	.	.	4gg#\ 4ee^\	.	4ggg#\ 4eee^\	.	.	.
.	16f#\	.	.	.	.	.	.	.	.
.	16e\ 16c#\	.	.	.	.	.	.	.	.
.	16F#\JJ	.	.	.	.	.	.	.	.
8BB/L 8BBB/	16d#\LL 16B\	.	.	4ff#\ 4dd#^\	.	4fff#\ 4ddd#^\	.	.	.
.	16f#\	.	.	.	.	.	.	.	.
16AA#/L 16AAA#/	16d#\ 16B\	.	.	.	.	.	.	.	.
16GG#/JJ 16GGG#/	16F#\JJ)	.	.	.	.	.	.	.	.
!LO:LB:g=original	!	!	!	!	!	!	!	!	!
=61	=61	=61	=61	=61	=61	=61	=61	=61	=61
!	!	!	!	!	!	!LO:TX:b:i:t=marcato	!	!	!
4FF#/ 4FFF#/	(16d#\LL	.	.	8dd#\L 8b'\	.	(16ddd#\LL	2	.	.
.	16e\	.	.	.	.	16eee\	1	.	.
.	16f#\	.	.	8ff#\J 8dd#'\	.	16fff#\	.	.	.
.	16e#X\JJ	.	.	.	.	16eee#X\JJ	.	.	.
(8BB^/L	16f#\LL	.	.	8ff#\L 8dd#'\	.	16fff#\LL	.	.	.
.	16g#\	.	.	.	.	16ggg#\	.	.	.
16AA#/L	16f#\	.	.	8ff#\J 8dd#'\	.	16fff#\	.	.	.
16GG#/JJ)	16e#\JJ	.	.	.	.	16eee#\JJ	.	.	.
!	!	!	!	!	!	!LO:LB:g=original	!	!	!
=62	=62	=62	=62	=62	=62	=62	=62	=62	=62
4FF#/ 4FFF#/	16f#\LL	.	.	8ff#\L 8dd#'\	.	16fff#\LL	.	.	.
.	16d#\	.	.	.	.	16ddd#\	.	.	.
.	16g#\	.	.	8gg#\J 8ee'\	.	16ggg#\	.	.	.
.	16f#\JJ	.	.	.	.	16fff#\JJ	.	.	.
(8BB^/L	16en\LL	.	.	4ee\ 4cc#^\	.	16eee#X\LL	.	.	.
.	16d#\	.	.	.	.	16ddd#\	.	.	.
16AA#/L	16c#\	.	.	.	.	16ccc#\	.	.	.
16GG#/JJ)	16B#X\JJ)	.	.	.	.	16bb#X\JJ)	.	.	.
=63	=63	=63	=63	=63	=63	=63	=63	=63	=63
4FF#/ 4FFF#/	(16c#\LL	.	.	8cc#\L 8a#X'\	.	(16ccc#\LL	.	.	.
.	16B#X\	.	.	.	.	16bb#X\	.	.	.
.	16c#\	.	.	8cc#\J 8a#'\	.	16ccc#\	.	.	.
.	16d#\JJ	.	.	.	.	16ddd#\JJ	.	.	.
(8BB^/L	16e\LL	.	.	8ee\L 8cc#'\	.	16eee\LL	.	.	.
.	16d#\	.	.	.	.	16ddd#\	.	.	.
16AA#/L	16e\	.	.	8ee\J 8cc#'\	.	16eee\	.	.	.
16GG#/JJ)	16A#\JJ	.	.	.	.	16aa#\JJ	.	.	.
=64	=64	=64	=64	=64	=64	=64	=64	=64	=64
4FF#/ 4FFF#/	16c#\LL	.	<	4dd#\ 4b\	.	16ccc#\LL	.	<	<
.	16Bn\	.	.	.	.	16bb#X\	.	.	.
.	16A#\	.	.	.	.	16aa#\	.	.	.
.	16B\JJ)	.	.	.	.	16bb#\JJ	.	.	.
4r	4f#\ 4d#\	.	.	(16cc#\LL	4	16ccc#\LL	.	.	.
.	.	.	[	16dd#\	.	16ddd#\	.	.	.
.	.	.	.	16ee\	.	16eee\	.	.	.
.	.	.	.	16ee#X\JJ)	.	16eee#X\JJ)	.	[[	[[
*	*clefG2	*	*	*	*	*	*	*	*
=65	=65	=65	=65	=65	=65	=65	=65	=65	=65
*	*	*	*	*	*	*8va	*	*	*
*^	*	*	*	*	*	*	*	*	*
!LO:MO:mod=!null:null	!	!	!	!	!	!	!	!	!	!
!LO:N:vis=2	!	!	!	!	!	!	!	!	!	!
8BBB/L	2BBB\	8d#/L 8B/	ff	ff	(16ff#\LL	.	(16fff#\LL	.	ff	ff
.	.	.	.	.	16gg#\	.	16ggg#\	.	.	.
8BB/J	.	8f#/J 8d#'/	.	.	16ff#\	.	16fff#\	.	.	.
.	.	.	.	.	16gg#\JJ	.	16ggg#\JJ	.	.	.
8BB/L	.	8f#/L 8d#'/	.	.	8b^\L	.	8bbb\L 8bb^\	.	.	.
8BB/J	.	(16f#/L 16d#/	.	.	16aa#\L	.	16aaa#\L	.	.	.
.	.	16e#X/JJ 16c##X/	.	.	16gg#\JJ)	.	16ggg#\JJ)	.	.	.
!LO:LB:g=original	!	!	!	!	!	!	!	!	!	!
=66	=66	=66	=66	=66	=66	=66	=66	=66	=66	=66
!LO:MO:mod=!null:null	!	!	!	!	!	!	!	!	!	!
!LO:N:vis=2	!	!	!	!	!	!	!	!	!	!
8BBB/L	2BBB\	8f#/L 8d#'/)	.	.	(16ff#\LL	.	(16fff#\LL	.	.	.
.	.	.	.	.	16gg#\	.	16ggg#\	.	.	.
8BB/J	.	8g#/J 8en'/	.	.	16ff#\	.	16fff#\	.	.	.
.	.	.	.	.	16gg#\JJ	.	16ggg#\JJ	.	.	.
8BB/L	.	4e/ 4c#X^/	.	.	8b^\L	.	8bbb\L 8bb^\	.	.	.
8BB/J	.	.	.	.	16aa#\L	.	16aaa#\L	.	.	.
.	.	.	.	.	16gg#\JJ)	.	16ggg#\JJ)	.	.	.
!	!	!	!	!	!	!	!LO:MO:mod=*null:null	!	!	!
*	*	*	*	*	*	*	*X8va	*	*	*
!	!	!	!	!	!LO:LB:g=original	!	!	!	!	!
=67	=67	=67	=67	=67	=67	=67	=67	=67	=67	=67
!	!	!	!	!	!	!	!LO:MO:mod=*null:null	!	!	!
*	*	*	*	*	*	*	*8va	*	*	*
!LO:MO:mod=!null:null	!	!	!	!	!	!	!	!	!	!
!LO:N:vis=2	!	!	!	!	!	!	!	!	!	!
8BBB/L	2BBB\	8c#/L 8A#'/	.	.	(16ff#\LL	.	(16fff#\LL	.	.	.
.	.	.	.	.	16gg#\	.	16ggg#\	.	.	.
8BB/J	.	8e/J 8c#'/	.	.	16ff#\	.	16fff#\	.	.	.
.	.	.	.	.	16gg#\JJ	.	16ggg#\JJ	.	.	.
8BB/L	.	8e/L 8c#'/	.	.	8b^\L	.	8bbb\L 8bb^\	.	.	.
8BB/J	.	8g#/J 8e'/	.	.	16aa#\L	.	16aaa#\L	.	.	.
.	.	.	.	.	16gg#\JJ)	.	16ggg#\JJ)	.	.	.
=68	=68	=68	=68	=68	=68	=68	=68	=68	=68	=68
!LO:MO:mod=!null:null	!	!	!	!	!	!	!	!	!	!
!LO:N:vis=2	!	!	!	!	!	!	!	!	!	!
8BBB/L	2BBB\	(16g#/LL 16e/	.	.	(16ff#\LL	.	(16fff#\LL	.	.	.
.	.	16b/	.	.	16gg#\	.	16ggg#\	.	.	.
8BB/	.	16a#/	.	.	16ff#\	.	16fff#\	.	.	.
.	.	16g#/JJ)	.	.	16gg#\JJ	.	16ggg#\JJ	.	.	.
8BB/	.	4f#/ 4d#/	.	.	8b^\L	.	8bbb\L 8bb^\	.	.	.
8BB/J	.	.	.	.	16aa#\L	.	16aaa#\L	.	.	.
.	.	.	.	.	16gg#\JJ)	.	16ggg#\JJ)	.	.	.
*v	*v	*	*	*	*	*	*	*	*	*
=69	=69	=69	=69	=69	=69	=69	=69	=69	=69
(8EE-X/L	(8gn/L 8e-X/	.	.	(16bb-X\LL	.	(16bbb-X\LL	2	.	.
.	.	.	.	16cccn\	.	16ccccn\	3	.	.
8E-X/J)	8b-X/J 8g'/)	.	.	16bb-\	.	16bbb-\	.	.	.
.	.	.	.	16ccc\JJ	.	16cccc\JJ	.	.	.
(8BBB-X/L	8b-/L 8g'/	.	.	8ee-X^\L	.	8eeee-X\L 8eee-X^\	.	.	.
8BB-X/J)	(16b-/L 16g/	.	.	16dddn\L	.	16ddddn\L	.	.	.
.	16an/JJ 16f#X/	.	.	16ccc\JJ)	.	16cccc\JJ)	.	.	.
=70	=70	=70	=70	=70	=70	=70	=70	=70	=70
(8EE-X/L	8b-X/L 8gn'/)	.	.	(16bb-X\LL	.	(16bbb-X\LL	.	.	.
.	.	.	.	16cccn\	.	16ccccn\	.	.	.
!	!LO:SIC:s=8ccn/J 8an/':v	!	!	!	!	!	!	!	!
8E-X/J)	8ccn/J 8an/	.	.	16bb-\	.	16bbb-\	.	.	.
.	.	.	.	16ccc\JJ	.	16cccc\JJ	.	.	.
(8BBB-X/L	4a/ 4fn/	.	.	8ee-X^\L	.	8eeee-X\L 8eee-X^\	.	.	.
8BB-X/J)	.	.	.	16dddn\L	.	16ddddn\L	.	.	.
.	.	.	.	16ccc\JJ)	.	16cccc\JJ)	.	.	.
=71	=71	=71	=71	=71	=71	=71	=71	=71	=71
(8EE-X/L	8fn/L 8dn'/	.	.	(16bb-X\LL	.	(16bbb-X\LL	.	.	.
.	.	.	.	16cccn\	.	16ccccn\	.	.	.
8E-X/J)	8an/J 8f'/	.	.	16bb-\	.	16bbb-\	.	.	.
.	.	.	.	16ccc\JJ	.	16cccc\JJ	.	.	.
(8BBB-X/L	8a/L 8f'/	.	.	8ee-X^\L	.	8eeee-X\L 8eee-X^\	.	.	.
8BB-X/J)	8ccn/J 8a'/	.	.	16dddn\L	.	16ddddn\L	.	.	.
.	.	.	.	16ccc\JJ)	.	16cccc\JJ)	.	.	.
!LO:LB:g=original	!	!	!	!	!	!LO:LB:g=original	!	!	!
=72	=72	=72	=72	=72	=72	=72	=72	=72	=72
!	!LO:MO:mod=!LO&colon;TX&colon;a&colon;i&colon;t=poco rit.	!	!	!	!	!LO:MO:mod=!LO&colon;TX&colon;a&colon;i&colon;t=poco rit.	!	!	!
!	!null	!	!	!	!	!null	!	!	!
(8EE-X/L	(8ccn/L 8an/	>	>	(16bb-X\LL	.	(16bbb-X\LL	.	.	>
.	.	.	.	16cccn\	.	16ccccn\	.	.	.
8E-X/J)	8b-X/ 8g#/	.	.	16bb-\	.	16bbb-\	.	.	.
.	.	.	.	16ccc\JJ	.	16cccc\JJ	.	.	.
!	!LO:MO:mod=!null:null	!	!	!	!	!LO:MO:mod=!null:null	!	!	!
!	!LO:TX:a:i:t=poco rit.	!	!	!	!	!LO:TX:a:i:t=poco rit.	!	!	!
*	*	*^	*^	*	*	*	*	*	*
(8BBB-X/L	8an/ 8f#X/	.	>	.	.	16ee-X^\LL	.	16eeee-X\LL 16eee-X\	.	.	.
*	*	*v	*v	*	*	*	*	*	*	*	*
*	*	*	*v	*v	*	*	*	*	*	*
.	.	.	.	16dddn\	.	16ddddn\	.	.	.
8BB-X/J)	8g#X/J 8e#X/)	]]	]]	16ccc\	.	16cccc\	.	.	.
.	.	.	.	16ddd\JJ)	.	16dddd\JJ)	.	.	]
=73	=73	=73	=73	=73	=73	=73	=73	=73	=73
*^	*	*	*	*	*	*	*	*	*
!LO:MO:mod=!null:null	!	!	!	!	!	!	!	!	!	!
!LO:N:vis=2	!	!LO:TX:a:i:t=a tempo	!	!	!	!	!	!	!LO:DY:rj	!LO:DY:rj
!	!	!	!	!	!	!	!LO:MO:mod=!LO&colon;TX&colon;a&colon;i&colon;t=a tempo	!	!	!
!	!	!	!	!	!	!	!null	!	!	!
8BBBn/L	[2BBBn\	8f#/L 8d#'/	p <	p <	8ddd#X'\L	.	8dddd#X'\L	.	p	p<
*	*	*	*	*	*	*	*X8va	*	*	*
!	!	!	!	!	!	!	!LO:MO:mod=!null:null	!	!	!
!	!	!	!	!	!	!	!LO:TX:a:i:t=a tempo	!	!	!
8BBn/	.	8f#/J 8d#'/	.	.	8ff#'\J	.	8fff#'\J	.	.	.
8BB/	.	8g#/L 8dn/ 8B'/	.	.	(16ff#\LL	.	(16fff#\LL	.	.	.
.	.	.	.	.	16ee#X\	.	16eee#X\	.	.	.
8BB/J	.	8g#/J 8d/ 8B'/	[[	[[	16gg#\	.	16ggg#\	.	.	.
.	.	.	.	.	16ee#\JJ	.	16eee#\JJ	.	.	[
=74	=74	=74	=74	=74	=74	=74	=74	=74	=74	=74
2BB/	2BBB\]	4a#X/ 4f#/ 4c#/	.	>	8.ff#^\L	.	8.fff#^\L	.	.	>
.	.	.	.	.	16ee#X\Jk	.	16eee#X\Jk	.	.	.
.	.	(16a#/LL	>	.	4ff#\)	.	4fff#\)	.	.	.
.	.	16b/	.	.	.	.	.	.	.	.
.	.	16a#/	.	.	.	.	.	.	.	.
.	.	16g#/JJ	]]	]]	.	.	.	.	.	]]
=75	=75	=75	=75	=75	=75	=75	=75	=75	=75	=75
!LO:MO:mod=!null:null	!	!	!	!	!	!	!	!	!	!
!LO:N:vis=2	!	!	!	!	!	!	!	!	!	!
8BBB/L	[2BBB\	8f#/L 8d#'/)	<	<	8dd#'\L	.	8ddd#'\L	.	.	<
8BB/	.	8f#/J 8d#'/	.	.	8ff#'\J	.	8fff#'\J	.	.	.
8BB/	.	8g#/L 8dn/ 8B'/	.	.	(16ff#\LL	.	(16fff#\LL	.	.	.
.	.	.	.	.	16ee#X\	.	16eee#X\	.	.	.
8BB/J	.	8g#/J 8d/ 8B'/	[[	[[	16gg#\	.	16ggg#\	.	.	.
.	.	.	.	.	16ee#\JJ	.	16eee#\JJ	.	.	[
=76	=76	=76	=76	=76	=76	=76	=76	=76	=76	=76
2BB/	2BBB\]	4a#/ 4f#/ 4c#/	.	>	8.ff#^\L	.	8.fff#^\L	.	.	>
.	.	.	.	.	16ee#X\Jk	.	16eee#X\Jk	.	.	.
.	.	(16a#/LL	>	.	4ff#\)	.	4fff#\)	.	.	.
.	.	16b/	.	.	.	.	.	.	.	.
.	.	16a#/	.	.	.	.	.	.	.	.
.	.	16g#/JJ)	]]	]]	.	.	.	.	.	]]
*v	*v	*	*	*	*	*	*	*	*	*
!LO:LB:g=original	!	!	!	!	!LO:LB:g=original	!	!	!	!
=77	=77	=77	=77	=77	=77	=77	=77	=77	=77
*	*	*	*	*	*	*8va	*	*	*
!	!	!	!	!LO:TX:t=P:problem=belka między kernami osiemnaście taktów i łuk między pięcioliniami (N = linked nie działa)	!	!	!	!	!
!	!	!	!	!LO:TX:t=P:problem=mixed beam	!	!	!	!	!
8BBB'/L	8f#'/L 8d#'/	.	.	16dd#/ 16b/	.	16ryy	.	.	.
.	.	.	.	16ryy	.	16ddd#\LL	.	.	.
8BB'/J	8g#'/J	.	.	8ryy	.	16dddd#\	.	.	.
.	.	.	.	.	.	16ddd#\JJ	.	.	.
!	!	!	!	!LO:TX:t=P:problem=mixed beam	!	!	!	!	!
8FFF#'/L	8c#'/L 8A#'/	.	.	16cc#/ 16a#/	.	16ryy	.	.	.
.	.	.	.	16ryy	.	16ccc#\LL	.	.	.
8FF#'/J	8e'/J	.	.	8ryy	.	16cccc#\	.	.	.
.	.	.	.	.	.	16ccc#\JJ	.	.	.
=78	=78	=78	=78	=78	=78	=78	=78	=78	=78
!	!	!	!	!LO:TX:t=P:problem=mixed beam	!	!	!	!	!
8BBB'/L	8f#'/L 8d#'/	.	.	16ff#/ 16dd#/	.	16ryy	.	.	.
.	.	.	.	16ryy	.	16fff#\LL	.	.	.
8BB'/J	8g#'/J	.	.	8ryy	.	16ffff#\	.	.	.
.	.	.	.	.	.	16fff#\JJ	.	.	.
!	!	!	!	!LO:TX:t=P:problem=mixed beam	!	!	!	!	!
8FFF#'/L	8c#'/L 8A#'/	.	.	16ee/ 16cc#/	.	16ryy	.	.	.
.	.	.	.	16ryy	.	16eee\LL	.	.	.
8FF#'/J	8g#'/J	.	.	8ryy	.	16eeee\	.	.	.
.	.	.	.	.	.	16eee\JJ	.	.	.
=79	=79	=79	=79	=79	=79	=79	=79	=79	=79
!	!	!	!	!LO:TX:t=P:problem=mixed beam	!	!	!	!	!
8BBB'/L	8f#'/L 8d#'/	.	.	16dd#/ 16b/	.	16ryy	.	.	.
.	.	.	.	16ryy	.	16ddd#\LL	.	.	.
8BB'/J	8g#'/J	.	.	8ryy	.	16dddd#\	.	.	.
.	.	.	.	.	.	16ddd#\JJ	.	.	.
!	!	!	!	!LO:TX:t=P:problem=mixed beam	!	!	!	!	!
8FFF#'/L	8c#'/L 8A#'/	.	.	16cc#/ 16a#/	.	16ryy	.	.	.
.	.	.	.	16ryy	.	16ccc#\LL	.	.	.
8FF#'/J	8e'/J	.	.	8ryy	.	16cccc#\	.	.	.
.	.	.	.	.	.	16ccc#\JJ	.	.	.
=80	=80	=80	=80	=80	=80	=80	=80	=80	=80
!	!	!	!	!LO:TX:t=P:problem=mixed beam	!	!	!	!	!
8BBB'/L	8f#'/L 8d#'/	.	.	16ff#/ 16dd#/	.	16ryy	.	.	.
.	.	.	.	16ryy	.	16fff#\LL	.	.	.
8BB'/J	8g#'/J	.	.	8ryy	.	16ffff#\	.	.	.
.	.	.	.	.	.	16fff#\JJ	.	.	.
!	!	!	!	!LO:TX:t=P:problem=mixed beam	!	!	!	!	!
8FFF#'/L	8c#'/L 8A#'/	.	.	16ee/ 16cc#/	.	16ryy	.	.	.
.	.	.	.	16ryy	.	16eee\LL	.	.	.
8FF#'/J	8g#'/J	.	.	8ryy	.	16eeee\	.	.	.
.	.	.	.	.	.	16eee\JJ	.	.	.
=81	=81	=81	=81	=81	=81	=81	=81	=81	=81
!	!	!	!	!LO:TX:t=P:problem=mixed beam	!	!	!	!	!
8BBB'/L	8f#'/L 8d#'/	.	.	16dd#/ 16b/	.	16ryy	.	.	.
.	.	.	.	16ryy	.	16ddd#\LL	.	.	.
8BB'/J	8gn'/J	.	.	8ryy	.	16dddd#\	.	.	.
.	.	.	.	.	.	16ddd#\JJ	.	.	.
!	!	!	!	!LO:TX:t=P:problem=mixed beam	!	!	!	!	!
8FFF#'/L	8f#'/L 8c#'/	.	.	16cc#/ 16a#/	.	16ryy	.	.	.
.	.	.	.	16ryy	.	16ccc#\LL	.	.	.
8FF#'/J	8e#X'/J	.	.	8ryy	.	16cccc#\	.	.	.
.	.	.	.	.	.	16ccc#\JJ	.	.	.
*	*clefF4	*	*	*	*	*	*	*	*
!LO:LB:g=original	!	!	!	!	!	!	!	!	!
*kcancel	*kcancel	*	*	*kcancel	*	*kcancel	*	*	*
=82||	=82||	=82||	=82||	=82||	=82||	=82||	=82||	=82||	=82||
*k[b-e-a-d-]	*k[b-e-a-d-]	*	*	*k[b-e-a-d-]	*	*k[b-e-a-d-]	*	*	*
!	!	!	!	!LO:TX:t=P:problem=mixed beam	!	!	!	!	!
8AAA-'/L	8e-\L 8c'\	.	.	16cc/ 16a-/	.	16ryy	.	.	.
.	.	.	.	16ryy	.	16ccc\LL	.	.	.
8AA-'/J	8f'\J	.	.	8ryy	.	16cccc\	.	.	.
.	.	.	.	.	.	16ccc\JJ	.	.	.
!	!	!	!	!LO:TX:t=P:problem=mixed beam	!	!	!	!	!
8EEE-'/L	8B-\L 8G'\	.	.	16b-/ 16g/	.	16ryy	.	.	.
.	.	.	.	16ryy	.	16bb-\LL	.	.	.
8EE-'/J	8d-'\J	.	.	8ryy	.	16bbb-\	.	.	.
.	.	.	.	.	.	16bb-\JJ	.	.	.
=83	=83	=83	=83	=83	=83	=83	=83	=83	=83
!	!	!	!	!LO:TX:t=P:problem=mixed beam	!	!	!	!	!
8AAA-'/L	8e-\L 8c'\	.	.	16ee-/ 16cc/	.	16ryy	.	.	.
.	.	.	.	16ryy	.	16eee-\LL	.	.	.
8AA-'/J	8f'\J	.	.	8ryy	.	16eeee-\	.	.	.
.	.	.	.	.	.	16eee-\JJ	.	.	.
!	!	!	!	!LO:TX:t=P:problem=mixed beam	!	!	!	!	!
8EEE-'/L	8B-\L 8G'\	.	.	16dd-/ 16b-/	.	16ryy	.	.	.
.	.	.	.	16ryy	.	16ddd-\LL	.	.	.
8EE-'/J	8f'\J	.	.	8ryy	.	16dddd-\	.	.	.
.	.	.	.	.	.	16ddd-\JJ	.	.	.
=84	=84	=84	=84	=84	=84	=84	=84	=84	=84
!	!	!	!	!LO:TX:t=P:problem=mixed beam	!	!	!	!	!
8AAA-'/L	8e-\L 8c'\	.	.	16cc/ 16a-/	.	16ryy	.	.	.
.	.	.	.	16ryy	.	16ccc\LL	.	.	.
8AA-'/J	8f'\J	.	.	8ryy	.	16cccc\	.	.	.
.	.	.	.	.	.	16ccc\JJ	.	.	.
!	!	!	!	!LO:TX:t=P:problem=mixed beam	!	!	!	!	!
8EEE-'/L	8B-\L 8G'\	.	.	16b-/ 16g/	.	16ryy	.	.	.
.	.	.	.	16ryy	.	16bb-\LL	.	.	.
8EE-'/J	8d-'\J	.	.	8ryy	.	16bbb-\	.	.	.
.	.	.	.	.	.	16bb-\JJ	.	.	.
=85	=85	=85	=85	=85	=85	=85	=85	=85	=85
!	!	!	!	!LO:TX:t=P:problem=mixed beam	!	!	!	!	!
8AAA-'/L	8e-\L 8c'\	.	.	16ee-/ 16cc/	.	16ryy	.	.	.
.	.	.	.	16ryy	.	16eee-\LL	.	.	.
8AA-'/J	8f'\J	.	.	8ryy	.	16eeee-\	.	.	.
.	.	.	.	.	.	16eee-\JJ	.	.	.
!	!	!	!	!LO:TX:t=P:problem=mixed beam	!	!	!	!	!
8EEE-'/L	8B-\L 8G'\	.	.	16dd-/ 16b-/	.	16ryy	.	.	.
.	.	.	.	16ryy	.	16ddd-\LL	.	.	.
8EE-'/J	8f'\J	.	.	8ryy	.	16dddd-\	.	.	.
.	.	.	.	.	.	16ddd-\JJ	.	.	.
=86	=86	=86	=86	=86	=86	=86	=86	=86	=86
!	!	!	!	!LO:TX:t=P:problem=mixed beam	!	!	!	!	!
8AAA-'/L	8e-\L 8c'\	.	.	16cc/ 16a-/	.	16ryy	.	.	.
.	.	.	.	16ryy	.	16ccc\LL	.	.	.
8AA-'/J	8en'\J	.	.	8ryy	.	16cccc\	.	.	.
.	.	.	.	.	.	16ccc\JJ	.	.	.
!	!	!	!	!LO:TX:t=P:problem=mixed beam	!	!	!	!	!
8EEE-'/L	8e-X\L 8B-'\	.	.	16b-/ 16g/	.	16ryy	.	.	.
.	.	.	.	16ryy	.	16bb-\LL	.	.	.
8EE-'/J	8d-'\J	.	.	8ryy	.	16bbb-\	.	.	.
.	.	.	.	.	.	16bb-\JJ	.	.	.
*	*	*	*	*	*	*X8va	*	*	*
!LO:PB:g=original	!	!	!	!LO:PB:g=original	!	!	!	!	!
=87	=87	=87	=87	=87	=87	=87	=87	=87	=87
*	*	*	*	*	*	*8va	*	*	*
!	!	!	!	!LO:TX:t=P:problem=mixed beam	!	!	!	!	!
8FFF'/L	(8.c\L 8.C^\	f	f	16an/ 16f/	.	16ryy	.	.	f
.	.	.	.	16ryy	.	16aan\LL	.	.	.
8FF'/J	.	.	.	8ryy	.	16aaan\	.	.	.
.	32Dn\LL	<	<	.	.	16aa\JJ	.	.	.
.	32F\JJJ	.	.	.	.	.	.	.	.
!	!	!	!	!LO:TX:t=P:problem=mixed beam	!	!	!	!	!
8CCC'/L	8G\L 8En'\)	.	.	16g/ 16en/	.	16ryy	.	.	.
.	.	.	.	16ryy	.	16gg\LL	.	.	.
8CC'/J	8B-\J 8G'\	.	.	8ryy	.	16ggg\	.	.	.
.	.	.	.	.	.	16gg\JJ	.	.	.
=88	=88	=88	=88	=88	=88	=88	=88	=88	=88
!	!	!	!	!LO:TX:t=P:problem=mixed beam	!	!	!	!	!
8FFF#X'/L	8c\L 8An'\	.	.	16cc/ 16an/	.	16ryy	.	.	.
.	.	.	.	16ryy	.	16ccc\LL	.	.	.
8FF#X'/J	8en\J 8c'\	.	.	8ryy	.	16cccc\	.	.	.
.	.	.	.	.	.	16ccc\JJ	.	.	.
!	!	!	!	!LO:TX:t=P:problem=mixed beam	!	!	!	!	!
8CCC'/L	4dn\ 4B-^\	[	[	16b-/ 16g/	.	16ryy	.	.	.
.	.	.	.	16ryy	.	16bb-\LL	.	.	.
8CC'/J	.	.	.	8ryy	.	16bbb-\	.	.	.
.	.	.	.	.	.	16bb-\JJ	.	.	.
=89	=89	=89	=89	=89	=89	=89	=89	=89	=89
!	!	!	!	!LO:TX:t=P:problem=mixed beam	!	!	!	!	!
8FFFn'/L	(8.c\L 8.C^\	.	.	16an/ 16f/	.	16ryy	.	.	.
.	.	.	.	16ryy	.	16aan\LL	.	.	.
8FFn'/J	.	.	.	8ryy	.	16aaan\	.	.	.
.	32Dn\LL	<	<	.	.	16aa\JJ	.	.	.
.	32F\JJJ	.	.	.	.	.	.	.	.
!	!	!	!	!LO:TX:t=P:problem=mixed beam	!	!	!	!	!
8CCC'/L	8G\L 8En'\)	.	.	16g/ 16en/	.	16ryy	.	.	.
.	.	.	.	16ryy	.	16gg\LL	.	.	.
8CC'/J	8B-\J 8G'\	.	.	8ryy	.	16ggg\	.	.	.
.	.	.	.	.	.	16gg\JJ	.	.	.
=90	=90	=90	=90	=90	=90	=90	=90	=90	=90
!	!	!	!	!LO:TX:t=P:problem=mixed beam	!	!	!	!	!
8FFF#X/L	8c\L 8An'\	.	.	16cc/ 16an/	.	16ryy	.	.	.
.	.	.	.	16ryy	.	16ccc\LL	.	.	.
8FF#X/J	8en\J 8c'\	.	.	8ryy	.	16cccc\	.	.	.
.	.	.	.	.	.	16ccc\JJ	.	.	.
!	!	!	!	!LO:TX:t=P:problem=mixed beam	!	!	!	!	!
8CCC/L	4dn\ 4B-^\	[	[	16b-/ 16g/	.	16ryy	.	.	.
.	.	.	.	16ryy	.	16bb-\LL	.	.	.
8CC/J	.	.	.	8ryy	.	16bbb-\	.	.	.
.	.	.	.	.	.	16bb-\JJ	.	.	.
=91	=91	=91	=91	=91	=91	=91	=91	=91	=91
!	!	!	!	!LO:TX:t=P:problem=mixed beam	!	!	!	!	!
(4F/ 4FF/	(8.d-X^\L	.	.	16an/	.	16ryy	.	.	.
.	.	.	.	16ryy	.	16aan\LL	.	.	.
.	.	.	.	8ryy	.	16aaan\	.	.	.
.	32e-X\LL	.	.	.	.	16aa\JJ	.	.	.
.	32d-\JJJ	.	.	.	.	.	.	.	.
!	!	!	!	!LO:TX:t=P:problem=mixed beam	!	!	!	!	!
8En/ 8EEn'/)	8c'\L)	.	.	16g/	.	16ryy	.	.	.
.	.	.	.	16ryy	.	16gg\LL	.	.	.
8r	8B-'\J	.	.	8ryy	.	16ggg\	.	.	.
.	.	.	.	.	.	16gg\JJ	.	.	.
!LO:LB:g=original	!	!	!	!LO:LB:g=original	!	!	!	!	!
=92	=92	=92	=92	=92	=92	=92	=92	=92	=92
!	!	!	!	!LO:TX:t=P:problem=mixed beam	!	!	!	!	!
(4F/ 4FF/	(8.d-^\L	.	.	16an/	.	16ryy	.	.	.
.	.	.	.	16ryy	.	16aan\LL	.	.	.
.	.	.	.	8ryy	.	16aaan\	.	.	.
.	32e-\LL	.	.	.	.	16aa\JJ	.	.	.
.	32d-\JJJ	.	.	.	.	.	.	.	.
!	!	!	!	!LO:TX:t=P:problem=mixed beam	!	!	!	!	!
8En/ 8EEn'/)	8c'\L)	.	.	16g/	.	16ryy	.	.	.
.	.	.	.	16ryy	.	16gg\LL	.	.	.
8r	8B-'\J	>	.	8ryy	.	16ggg\	.	.	.
.	.	.	.	.	.	16gg\JJ	.	.	.
=93	=93	=93	=93	=93	=93	=93	=93	=93	=93
!	!	!	!	!LO:TX:t=P:problem=mixed beam	!	!	!	!	!
(4F/ 4FF/	(8.d-^\L	.	>	16a-X/	.	16ryy	.	.	.
.	.	.	.	16ryy	.	16aa-X\LL	.	.	.
.	.	.	.	8ryy	.	16aaa-X\	.	.	.
.	32e-\LL	.	.	.	.	16aa-\JJ	.	.	.
.	32d-\JJJ	.	.	.	.	.	.	.	.
!	!	!	!	!LO:TX:t=P:problem=mixed beam	!	!	!	!	!
8En/ 8EEn'/)	8c'\L)	.	.	16b-/	.	16ryy	.	.	.
.	.	.	.	16ryy	.	16bb-\LL	.	.	.
8r	8B-'\J	.	.	8ryy	.	16bbb-\	.	.	.
.	.	.	.	.	.	16bb-\JJ	.	.	.
=94	=94	=94	=94	=94	=94	=94	=94	=94	=94
!	!	!	!	!LO:TX:t=P:problem=mixed beam	!	!	!	!	!
(4F/ 4FF/	(8.d-\L	.	.	16a-/	.	16ryy	.	.	.
.	.	.	.	16ryy	.	16aa-\LL	.	.	.
.	.	.	.	8ryy	.	16aaa-\	.	.	.
.	32e-\LL	.	.	.	.	16aa-\JJ	.	.	.
.	32d-\JJJ	.	.	.	.	.	.	.	.
!	!	!	!	!LO:TX:t=P:problem=mixed beam	!	!	!	!	!
8En/ 8EEn'/)	8c'\L)	]	]	16b-/	.	16ryy	.	.	.
.	.	.	.	16ryy	.	16bb-\LL	.	.	.
8r	8G'\J	.	.	8ryy	.	16bbb-\	.	.	.
.	.	.	.	.	.	16bb-\JJ	.	.	.
*	*clefG2	*	*	*	*	*	*	*	*
!	!	!	!	!LO:LB:g=original	!	!	!	!	!
=95||	=95||	=95||	=95||	=95||	=95||	=95||	=95||	=95||	=95||
*k[b-e-a-d-g-]	*k[b-e-a-d-g-]	*	*	*k[b-e-a-d-g-]	*	*k[b-e-a-d-g-]	*	*	*
*M6/8	*M6/8	*	*	*M6/8	*	*M6/8	*	*	*
!	!LO:MO:mod=!null:null	!	!	!	!	!LO:MO:mod=!null:null	!	!	!
!	!LO:TX:a:i:t=cantando	!	!	!	!	!LO:TX:b:i:t=sempre	!	!	!
!	!	!	!LO:DY:t=sempre p	!	!	!	!	!	!LO:DY:t=sempre p
!	!	!LO:MO:mod=!LO&colon;TX&colon;a&colon;i&colon;t=cantando	!	!	!	!LO:MO:mod=!LO&colon;TX&colon;a&colon;i&colon;t=cantando	!	!	!
!	!	!null	!	!	!	!null	!	!	!
4.AA-/ 4.DD-/	(4A-/	p	p	(8aa-\L	.	(8aaa-\L	2	p	p
.	.	.	.	8bb-\	.	8bbb-\	3	.	.
.	8A-/	.	.	8aa-\J	.	8aaa-\J	.	.	.
4.AA-/ 4.DD-/	8d-/L	.	.	8bb-\L	.	8bbb-\L	.	.	.
.	8f/	.	.	8aa-\	.	8aaa-\	.	.	.
.	8a-/J)	.	.	8bb-\J	.	8bbb-\J	.	.	.
=96	=96	=96	=96	=96	=96	=96	=96	=96	=96
4.AA-/ 4.DD-/	(4g-/ 4A-/	.	.	8aa-\L	.	8aaa-\L	.	.	.
.	.	.	.	8bb-\	.	8bbb-\	.	.	.
.	8e-/)	.	.	8aa-\J	.	8aaa-\J	.	.	.
4.AA-/ 4.DD-/	(4f/ 4A-/	.	.	8bb-\L	.	8bbb-\L	.	.	.
.	.	.	.	8aa-\	.	8aaa-\	.	.	.
.	8d-/)	.	.	8bb-\J)	.	8bbb-\J)	.	.	.
*	*	*	*	*	*	*X8va	*	*	*
!LO:LB:g=original	!	!	!	!LO:LB:g=original	!	!	!	!	!
=97	=97	=97	=97	=97	=97	=97	=97	=97	=97
*	*	*	*	*	*	*8va	*	*	*
4.AA-/ 4.DD-/	(4A-/	.	.	(8aa-\L	.	(8aaa-\L	.	.	.
.	.	.	.	8bb-\	.	8bbb-\	.	.	.
.	8A-/	.	.	8aa-\J	.	8aaa-\J	.	.	.
4.AA-/ 4.DD-/	8d-/L	.	.	8bb-\L	.	8bbb-\L	.	.	.
.	8f/	.	.	8aa-\	.	8aaa-\	.	.	.
.	8a-/J)	.	.	8bb-\J	.	8bbb-\J	.	.	.
=98	=98	=98	=98	=98	=98	=98	=98	=98	=98
4.AA-/ 4.DD-/	4g-/ 4A-/	.	.	8aa-\L	.	8aaa-\L	.	.	.
.	.	.	.	8bb-\	.	8bbb-\	.	.	.
.	8e-/	.	.	8ccc\J	.	8cccc\J	.	.	.
4.AA-/ 4.DD-/	4.a-/ 4.A-/	.	.	8ddd-\L	.	8dddd-\L	.	.	.
.	.	.	.	8eee-\	.	8eeee-\	.	.	.
.	.	.	.	8eeen\J)	.	8eeeen\J)	.	.	.
*	*clefF4	*	*	*	*	*	*	*	*
=99	=99	=99	=99	=99	=99	=99	=99	=99	=99
4.FF/ 4.BBB-/	(4F\	.	.	(8ff\L	3	(8ffff\L	2	.	.
.	.	.	.	8gg-\	2	8gggg-\	3	.	.
.	8F\	.	.	8ff\J	.	8ffff\J	.	.	.
4.FF/ 4.BBB-/	8B-\L	.	.	8gg-\L	.	8gggg-\L	.	.	.
.	8d-\	.	.	8ff\	.	8ffff\	.	.	.
.	8f\J)	.	.	8gg-\J	.	8gggg-\J	.	.	.
=100	=100	=100	=100	=100	=100	=100	=100	=100	=100
*	*^	*	*	*	*	*	*	*	*
4.FF/ 4.BBB-/	(4e-/	8Gn\L	.	.	8ff\L	.	8ffff\L	.	.	.
.	.	8A-\	.	.	8gg-\	.	8gggg-\	.	.	.
.	8c/	8An\J	.	.	8ff\J	.	8ffff\J	.	.	.
4.FF/ 4.BBB-/	4d-/	4B-\	.	.	8gg-\L	.	8gggg-\L	.	.	.
.	.	.	.	.	8ff\	.	8ffff\	.	.	.
.	8B-/)	8ryy	.	.	8gg-\J)	.	8gggg-\J)	.	.	.
*	*v	*v	*	*	*	*	*	*	*	*
=101	=101	=101	=101	=101	=101	=101	=101	=101	=101
4.FF/ 4.BBB-/	(4F\	.	.	(8ff\L	.	(8ffff\L	.	.	.
.	.	.	.	8gg-\	.	8gggg-\	.	.	.
.	8F\	.	.	8ff\J	.	8ffff\J	.	.	.
4.FF/ 4.BBB-/	8B-\L	.	.	8gg-\L	.	8gggg-\L	.	.	.
.	8d-\	.	.	8ff\	.	8ffff\	.	.	.
.	8f\J)	.	.	8gg-\J	.	8gggg-\J	.	.	.
=102	=102	=102	=102	=102	=102	=102	=102	=102	=102
*	*^	*	*	*	*	*	*	*	*
4.FF/ 4.BBB-/	(4e-/	8Gn\L	.	.	8ff\L	.	8ffff\L	.	.	.
.	.	8A-\	.	.	8gg-\	.	8gggg-\	.	.	.
.	8c/	8An\J	.	.	8ff\J	.	8ffff\J	.	.	.
4.FF/ 4.BBB-/	4.ryyyy	4d-\ 4B-\)	.	.	8gg-\L	.	8gggg-\L	.	.	.
.	.	.	.	.	8ff\	.	8ffff\	.	.	.
.	.	8r	.	.	8gg-\J)	.	8gggg-\J)	.	.	.
*	*clefG2	*	*	*	*	*	*	*	*	*
!LO:LB:g=original	!	!	!	!	!LO:LB:g=original	!	!	!	!	!
=103	=103	=103	=103	=103	=103	=103	=103	=103	=103	=103
[2.FF/ [2.FFF/	2.g-/	4.B-\	<	<	(8ff\L	1	(8ffff\L	1	.	.
.	.	.	.	.	8ddd-\	.	8dddd-\	.	.	.
.	.	.	.	.	8eee-\J	.	8eeee-\J	.	.	.
.	.	4c\	.	.	8ccc\L	.	8cccc\L	.	.	.
.	.	.	.	.	8ddd-\	.	8dddd-\	.	.	.
.	.	8d-\	[	[	8bb-\J	.	8bbb-\J	.	.	.
=104	=104	=104	=104	=104	=104	=104	=104	=104	=104	=104
2.FF/_ 2.FFF/_	(4.a-/	(4.e-\	>	>	8ccc\L	.	8cccc\L	.	.	.
.	.	.	.	.	8aa-\	.	8aaa-\	.	.	.
.	.	.	.	.	8bb-\J	.	8bbb-\J	.	.	.
.	4an/)	4e-\)	.	.	8gg-\L	.	8ggg-\L	.	.	.
.	.	.	.	.	8aa-\	.	8aaa-\	.	.	.
.	8b-/	8d-\	]	]	8ff\J)	.	8fff\J)	.	.	.
*	*v	*v	*	*	*	*	*	*	*	*
*	*	*	*	*	*	*X8va	*	*	*
=105	=105	=105	=105	=105	=105	=105	=105	=105	=105
*	*^	*	*	*	*	*	*	*	*
2.FF/_ 2.FFF/_	2.g-/	4.B-\	<	<	(8ff\L	.	(8fff\L	.	.	.
.	.	.	.	.	8dd-\	.	8ddd-\	.	.	.
.	.	.	.	.	8ee-\J	.	8eee-\J	.	.	.
.	.	4c\	.	.	8cc\L	.	8ccc\L	.	.	.
.	.	.	.	.	8dd-\	.	8ddd-\	.	.	.
.	.	8d-\	[	[	8b-\J)	.	8bb-\J	.	.	.
*	*v	*v	*	*	*	*	*	*	*	*
=106	=106	=106	=106	=106	=106	=106	=106	=106	=106
2.FF/] 2.FFF/]	[4.e-/	>	>	4.a-/	.	8ccc\L	.	.	.
.	.	.	.	.	.	8aa-\	.	.	.
.	.	.	.	.	.	8bb-\J	.	.	.
.	4e-/]	.	.	4an/	.	8gg-\L	.	.	.
.	.	.	.	.	.	8aa-\	.	.	.
.	8d-/	]]	]]	8b-\	.	8ff\J)	.	.	.
*	*clefF4	*	*	*	*	*	*	*	*
=107	=107	=107	=107	=107	=107	=107	=107	=107	=107
(4.F/ 4.FF/	(4.e-\ (4.An\	.	.	8g-/	.	(8gg-\L	.	.	.
.	.	.	.	8r	.	8aa-\	.	.	.
.	.	.	.	8r	.	8gg-\J	.	.	.
!	!	!	!	!	!	!LO:TX:t=P:problem=mixed beam	!	!	!
8BB-/)	8d-\ 8B-\))	.	.	4r	.	8gg-\L	.	.	.
8r	8r	.	.	.	.	8aa-\J)	.	.	.
!	!	!	!	!	!LO:MO:mod=*null:null	!	!	!	!
*	*	*	*	*	*below	*	*	*	*
!	!	!	!	!LO:TX:t=P:problem=belka między kernami	!	!	!	!	!
8r	8r	.	.	8ff/	4	8ryy	.	.	.
=108	=108	=108	=108	=108	=108	=108	=108	=108	=108
[4.F\	(4.e-\ (4.An\	.	.	(8gg-\L	.	(8ggg-\L	2	.	.
.	.	.	.	8aa-\	.	8aaa-\	3	.	.
.	.	.	.	8ff\J	.	8fff\J	.	.	.
8F\]	8d-\ 8B-\))	.	.	8gg-\L	.	8ggg-\L	.	.	.
8r	8r	.	.	8aa-\	.	8aaa-\	.	.	.
8r	8r	.	.	8ff\J)	.	8fff\J)	.	.	.
!LO:LB:g=original	!	!	!	!LO:LB:g=original	!	!	!	!	!
*kcancel	*kcancel	*	*	*kcancel	*	*kcancel	*	*	*
=109||	=109||	=109||	=109||	=109||	=109||	=109||	=109||	=109||	=109||
*k[b-e-a-d-]	*k[b-e-a-d-]	*	*	*k[b-e-a-d-]	*	*k[b-e-a-d-]	*	*	*
(4.E-/ 4.EE-/	(4.d-\ 4.Gn\	.	.	4r	.	(8ff\L	3	.	.
.	.	.	.	.	.	8ggn\	.	.	.
.	.	.	.	8r	.	8ee-\J	.	.	.
!	!	!	!	!	!	!LO:TX:t=P:problem=mixed beam	!	!	!
8AA-/)	8c\ 8A-\)	.	.	4r	.	8ff\L	.	.	.
8r	8r	.	.	.	.	8gg\J)	.	.	.
!	!	!	!	!LO:TX:t=P:problem=belka między kernami	!	!	!	!	!
8r	8r	.	.	8ee-/	.	8ryy	.	.	.
=110	=110	=110	=110	=110	=110	=110	=110	=110	=110
[4.E-\	(4.d-\ 4.Gn\	.	.	(8ff\L	.	(8fff\L	.	.	.
.	.	.	.	8ggn\	.	8gggn\	.	.	.
.	.	.	.	8ee-\J	.	8eee-\J	.	.	.
8E-\]	8c\ 8A-\)	.	.	8ff\L	.	8fff\L	.	.	.
8r	8r	.	.	8gg\	.	8ggg\	.	.	.
8r	8r	.	.	8ee-\J)	.	8eee-\J)	.	.	.
=111||	=111||	=111||	=111||	=111||	=111||	=111||	=111||	=111||	=111||
*M2/4	*M2/4	*	*	*M2/4	*	*M2/4	*	*	*
*^	*	*	*	*	*	*	*	*	*
!LO:MO:mod=!null:null	!	!	!	!	!	!	!	!	!	!
!	!	!LO:MO:mod=!LO&colon;TX&colon;a&colon;B&colon;t=Tranquillo (Tempo I)	!	!	!	!	!	!	!	!
!LO:N:vis=2	!	!LO:TX:a:b:i:t=Tranquillo. (Tempo I.)	!	!	!	!	!	!	!	!
!	!	!	!	!	!	!	!LO:MO:mod=!LO&colon;TX&colon;a&colon;B&colon;t=Tranquillo (Tempo I)	!	!	!
!	!	!	!	!	!	!	!null	!	!	!
8AAA-/L	2AAA-\	8E-'\L	.	pp	8dd-\L 8b-'\	.	(16ddd-\LL	.	pp	pp
.	.	.	.	.	.	.	16bb-\	.	.	.
8AA-'/	.	8E-'\J	.	.	8ff\J 8g'\	.	16fff\	.	.	.
.	.	.	.	.	.	.	16gg\JJ	.	.	.
8AA-'/	.	(8A-^\L	.	.	8cc\L 8a-'\	.	16ccc\LL	.	.	.
.	.	.	.	.	.	.	16aa-\	.	.	.
8AA-'/J	.	16c\L	.	.	8ee-\J 8f'\	.	16eee-\	.	.	.
.	.	16e-\JJ	.	.	.	.	16ff\JJ	.	.	.
=112	=112	=112	=112	=112	=112	=112	=112	=112	=112	=112
!LO:MO:mod=!null:null	!	!	!	!	!	!	!	!	!	!
!LO:N:vis=2	!	!	!	!	!	!	!	!	!	!
8AAA-/L	2AAA-\	8d-'\L)	.	.	8b-/L 8g'/	.	16bb-\LL	.	.	.
.	.	.	.	.	.	.	16gg\	.	.	.
8AA-'/	.	8B-'\	.	.	8dd-/J 8e-'/	.	16ddd-\	.	.	.
.	.	.	.	.	.	.	16ee-\JJ	.	.	.
8AA-'/	.	(8c^\	.	.	8cc/L 8a-'/	.	16ccc\LL	.	.	.
.	.	.	.	.	.	.	16aa-\	.	.	.
8AA-'/J	.	8A-\J)	.	.	8ee-/J 8f'/	.	16eee-\	.	.	.
.	.	.	.	.	.	.	16ff\JJ)	.	.	.
=113	=113	=113	=113	=113	=113	=113	=113	=113	=113	=113
!LO:MO:mod=!null:null	!	!	!	!	!	!	!	!	!	!
!LO:N:vis=2	!	!	!	!	!	!	!	!	!	!
8AAA-/L	2AAA-\	8E-'\L	.	.	8dd-\L 8b-'\	.	(16ddd-\LL	.	.	.
.	.	.	.	.	.	.	16bb-\	.	.	.
8AA-/	.	8E-'\J	.	.	8ff\J 8g'\	.	16fff\	.	.	.
.	.	.	.	.	.	.	16gg\JJ	.	.	.
8AA-/	.	(8A-^\L	.	.	8cc\L 8a-'\	.	16ccc\LL	.	.	.
.	.	.	.	.	.	.	16aa-\	.	.	.
8AA-/J	.	16c\L	.	.	8ee-\J 8f'\	.	16eee-\	.	.	.
.	.	16e-\JJ	.	.	.	.	16ff\JJ	.	.	.
!LO:LB:g=original	!	!	!	!	!LO:LB:g=original	!	!	!	!	!
=114	=114	=114	=114	=114	=114	=114	=114	=114	=114	=114
!LO:MO:mod=!null:null	!	!	!	!	!	!	!	!	!	!
!LO:N:vis=2	!	!	!	!	!	!	!	!	!	!
8AAA-/L	2AAA-\	8d-'\L)	.	.	8b-/L 8g'/	.	16bb-\LL	.	.	.
.	.	.	.	.	.	.	16gg\	.	.	.
8AA-/	.	8B-'\J	.	.	8dd-/J 8e-'/	.	16ddd-\	.	.	.
.	.	.	.	.	.	.	16gg\JJ	.	.	.
8AA-/	.	4e-\ 4c\	.	.	8cc/L 8a-'/	.	16ccc\LL	.	.	.
.	.	.	.	.	.	.	16aa-\	.	.	.
8AA-/J	.	.	.	.	8ee-/J 8f'/	.	16eee-\	.	.	.
.	.	.	.	.	.	.	16ff\JJ)	.	.	.
*v	*v	*	*	*	*	*	*	*	*	*
*	*clefG2	*	*	*	*	*	*	*	*
=115	=115	=115	=115	=115	=115	=115	=115	=115	=115
8r	(8b-/L 8f^/	.	p	8ff'\L	.	((16fff\LL	4	p	p
.	.	.	.	.	.	16ggg\)	.	.	.
8D-/ 8DD-'/	8a-/J 8d-'/)	.	.	8ff\J 8dd-'^\	.	16fff'\)	.	.	.
.	.	.	.	.	.	32r	.	.	.
.	.	.	.	.	.	(32ddd-\JJk	.	.	.
8r	(8b-/L 8e-^/	.	.	8ee-'\L	.	16eee-\LL	.	.	.
.	.	.	.	.	.	16fff\	.	.	.
8AA-/ 8AAA-'/	8a-/J 8c'/)	.	.	8ee-\J 8cc'^\	.	16eee-'\)	.	.	.
.	.	.	.	.	.	32r	.	.	.
.	.	.	.	.	.	32ccc\JJk	.	.	.
=116	=116	=116	=116	=116	=116	=116	=116	=116	=116
!	!	!	!	!	!	!LO:TUP:a	!	!	!
8r	(8b-/L 8f^/	.	.	8ff'\L	.	(24ddd-\LL	.	.	.
.	.	.	.	.	.	24eee-\	.	.	.
.	.	.	.	.	.	24fff\	.	.	.
8D-/ 8DD-'/	8a-/J 8d-/)	.	.	8ff\J 8dd-'^\	.	16eee-'\)	.	.	.
.	.	.	.	.	.	32r	.	.	.
.	.	.	.	.	.	32ddd-'\JJk	.	.	.
8r	(8b-/L 8e-^/	.	.	8ee-'\L	.	(8eee-^\L	.	.	.
8AA-/ 8AAA-'/	8a-/J 8c/)	.	.	8ee-\J 8cc'^\	.	8ccc'\J)	.	.	.
*	*clefF4	*	*	*	*	*	*	*	*
=117	=117	=117	=117	=117	=117	=117	=117	=117	=117
8BB-/ 8BBB-'/	8r	.	.	8r	.	(16ddd-\LL	.	.	.
.	.	.	.	.	.	16ccc\)	.	.	.
.	.	.	.	.	.	((8qccc/	.	.	.
8r	8d-\ 8D-'\	.	.	8dd-\ 8b-\	.	16bb-\)	.	.	.
.	.	.	.	.	.	16aa-\JJ	.	.	.
8E-/ 8EE-'/	(16d-\LL	.	.	8g'/L	.	8gg'\L)	.	.	.
.	16c\)	.	.	.	.	.	.	.	.
.	8qc/	.	.	.	.	.	.	.	.
8r	(16B-\	.	.	8g'/J	.	8ee-'\J	.	.	.
.	16A-\JJ)	.	.	.	.	.	.	.	.
=118	=118	=118	=118	=118	=118	=118	=118	=118	=118
8E-/L 8EE-'/	8d-\L 8G'\	.	.	(16f/LL	.	(16ff\LL	.	<	<
.	.	.	.	16g/J	.	16gg\	.	.	.
8AA-'/J	8c\J 8A-'\	.	.	8a-'/J)	.	16aa-\	.	.	.
.	.	.	.	.	.	16ccc\JJ	.	.	.
8BBn/ 8BBBn'/	8d#X\ 8An'\	.	.	8bn'\	.	16bbn\LL	.	[ >	[ >
.	.	.	.	.	.	16aan\	1	.	.
8r	8r	.	.	8r	.	16gg#X\	4	.	.
.	.	.	.	.	.	16ff#X\JJ)	3	]]	]]
!LO:PB:g=original	!	!	!	!LO:PB:g=original	!	!	!	!	!
*kcancel	*kcancel	*	*	*kcancel	*	*kcancel	*	*	*
=119||	=119||	=119||	=119||	=119||	=119||	=119||	=119||	=119||	=119||
*k[f#c#g#]	*k[f#c#g#]	*	*	*k[f#c#g#]	*	*k[f#c#g#]	*	*	*
2E/ 2EE/	8r	p	p	8r	.	8b'\L	.	.	p
.	8e\ 8B'\	.	.	8g#/	.	8b'\J	.	.	.
.	4e\ 4A#X\	.	.	4g#^/	.	(8ee\L	.	.	.
.	.	.	.	.	.	16gg#\L	.	.	.
.	.	.	.	.	.	16ccc#\JJ	.	.	.
=120	=120	=120	=120	=120	=120	=120	=120	=120	=120
2E/ 2EE/	8d#X\L 8B\ 8An'\	.	.	8b/L 8a'/	.	8aa#X'\L)	.	.	.
.	8d#\J 8B\ 8A'\	.	.	8b/J 8a'/	.	8ff#'\J	.	.	.
.	4e\ 4B\ 4G#\	.	.	8r	.	(8gg#^\L	.	.	.
.	.	.	.	(16g#/LL	.	8ee'\J)	.	.	.
.	.	.	.	16cc#/JJ	.	.	.	.	.
=121	=121	=121	=121	=121	=121	=121	=121	=121	=121
2E/ 2EE/	8r	.	.	8a'/L)	.	8b'\L	.	.	.
.	8d#X\L 8A'\	.	.	8f#'/J	.	8b'\J	.	.	.
.	8c#\J 8A#X'\	.	.	(8g#^/L	.	(8ee^\L	.	.	.
.	8r	.	.	8e/J)	.	16gg#\L	.	.	.
.	.	.	.	.	.	16ccc#\JJ	.	.	.
=122	=122	=122	=122	=122	=122	=122	=122	=122	=122
2E/ 2EE/	8B\L 8An'\	.	.	8b/L 8a'/	.	8aa'\L)	.	.	.
.	8B\J 8A'\	.	.	8b/J 8a'/	.	8ff#'\J	.	.	.
.	4e\ 4B\ 4G#\	.	.	8r	.	4bb\	.	.	.
.	.	.	.	(16g#/LL	.	.	.	.	.
.	.	.	.	16b/JJ	.	.	.	.	.
=123	=123	=123	=123	=123	=123	=123	=123	=123	=123
8r	(4c#\ 4A\	.	.	8a'/L)	.	(8.ccc#\L	.	.	.
8AA/ 8AAA/	.	.	.	8f#'/J	.	.	.	.	.
.	.	.	.	.	.	16aa\Jk	.	.	.
8r	4e\ 4G#\)	.	.	4b/	.	8.bb\L	.	.	.
8E/ 8EE/	.	.	.	.	.	.	.	.	.
.	.	.	.	.	.	16gg#\Jk	.	.	.
!	!	!	!	!	!	!LO:LB:g=original	!	!	!
=124	=124	=124	=124	=124	=124	=124	=124	=124	=124
8r	(4c#\ 4A\	.	.	(8.cc#/L	.	8aa'\L)	.	.	.
8AA/ 8AAA/	.	.	.	.	.	(16aa\L	.	.	.
.	.	.	.	16a/Jk	.	16ccc#\JJ	.	.	.
8r	4e\ 4G#\)	.	.	8b'/L)	.	8bb'\L)	.	.	.
8E/ 8EE/	.	.	.	8g#'/J	.	8gg#'\J	.	.	.
!LO:LB:g=original	!	!	!	!	!	!	!	!	!
=125	=125	=125	=125	=125	=125	=125	=125	=125	=125
4FF#/ 4FFF#/	8r	.	.	8a'/L	.	(16aa\LL	.	.	.
.	.	.	.	.	.	16gg#\	.	.	.
.	8c#\ 8A'\	.	.	(16a/L	.	16ff#\	.	.	.
.	.	.	.	16cc#/JJ	.	16ee\JJ	.	.	.
[4BB/ [4BBB/	8r	.	.	8b'/L)	.	8dd#X'\L)	.	.	.
.	8d#X\ 8G#'\	.	.	8g#'/J	.	8b'\J	.	.	.
=126	=126	=126	=126	=126	=126	=126	=126	=126	=126
8BB/]L 8BBB/]	(16c#\LL	.	.	(16a/LL	.	8cc#'\L	.	.	.
.	16B\	.	.	16g#/	.	.	.	.	.
8BB/J 8BBB/	16A\	.	.	16f#/	.	8dd#X'\J	.	.	.
.	16B\JJ	.	.	16g#/JJ)	.	.	.	.	.
[4EE/	16A\LL	<	<	8.e/L	.	8.ee\L	.	<	<
.	16G#\	.	.	.	.	.	.	.	.
.	16F#\	.	.	.	.	.	.	.	.
.	16E\JJ	.	.	16f#/Jk	.	16ff#\Jk	.	.	.
=127	=127	=127	=127	=127	=127	=127	=127	=127	=127
2EE/_	16dn\LL	.	.	8.g#/L	.	8.gg#\L	.	.	.
.	16c#\	.	.	.	.	.	.	.	.
.	16B\	.	.	.	.	.	.	.	.
.	16A\JJ	.	.	16a/Jk	.	16aa\Jk	.	.	.
.	16f#\LL	.	.	8.b\L	.	8.bb\L	.	.	.
.	16e\	.	.	.	.	.	.	.	.
.	16d\	.	.	.	.	.	.	.	.
.	16c#\JJ	[[	.	16cc#\Jk	.	16ccc#\Jk	.	[[	.
=128	=128	=128	=128	=128	=128	=128	=128	=128	=128
4EE/_	16B\LL	.	.	(16ddn\LL	.	(16dddn\LL	.	<	.
.	16A#X\	.	.	16dd#X\	.	16ddd#X\	.	.	.
.	16An\	.	.	16ee\	.	16eee\	.	.	.
.	16G#\JJ	.	.	16ff#\JJ	.	16fff#\JJ	.	.	.
*	*	*	*	*	*	*8va	*	*	*
8EE/L]	16F#\LL	.	.	16gg#\LL	.	16ggg#\LL	.	.	.
.	16E\J	.	.	16aa\J	.	16aaa\	.	.	.
!	!	!	!	!	!	!LO:TUP:a	!	!	!
8EE'/J	8d\J 8G#'^\)	.	.	8bb\J)	.	24bbb\	.	.	.
.	.	.	[	.	.	24cccc#\	.	.	.
.	.	.	.	.	.	24dddd#\JJ)	.	.	[[
*	*	*	*	*	*	*X8va	*	*	*
!LO:LB:g=original	!	!	!	!LO:LB:g=original	!	!	!	!	!
=129	=129	=129	=129	=129	=129	=129	=129	=129	=129
*	*	*	*	*	*	*8va	*	*	*
!	!	!	!	!	!	!LO:TX:t=P:problem=belka między kernami cztery takty i łuk między pięcioliniami (N = linked nie działa)	!	!	!
!	!	!	!	!	!	!LO:TX:t=P:problem=mixed beam	!	!	!
8EE/L 8EEE'/	8E'\L	ff	ff	8ryy	.	16eeee\LL 16aaa\	.	f	ff
.	.	.	.	.	.	16eee\JJ	.	.	.
*	*	*	*	*	*	*X8va	*	*	*
!	!	!	!	!	!	!	!	!	!
8EE/J 8EEE'/	8E'\J	.	.	16fff#\LL 16ccc#\	.	8ryy	.	.	.
.	.	.	.	16aa\JJ	.	.	.	.	.
!	!	!	!	!	!	!LO:TX:t=P:problem=mixed beam	!	!	!
(8AA/L 8AAA^>/	(8A^\L	.	.	8ryy	.	16eee\LL 16aa\	.	.	.
.	.	.	.	.	.	16ee\JJ	.	.	.
16C#/L 16CC#/	16c#\L	.	.	16ff#\LL 16cc#\	.	8ryy	.	.	.
16EE/JJ	16e\JJ 16E\	.	.	16a\JJ	.	.	.	.	.
=130	=130	=130	=130	=130	=130	=130	=130	=130	=130
*	*	*	*	*	*	*8va	*	*	*
!	!	!	!	!	!	!LO:TX:t=P:problem=mixed beam	!	!	!
8D/L 8DD'/)	8d'\L)	.	.	8ryy	.	16eeee\LL 16ggg#\	.	.	.
.	.	.	.	.	.	16eee\JJ	.	.	.
*	*	*	*	*	*	*X8va	*	*	*
8BB/J 8BBB'/	8B\J 8E'\	.	.	16ddd\LL 16bb\	.	8ryy	.	.	.
.	.	.	.	16aa\JJ	.	.	.	.	.
!	!	!	!	!	!	!LO:TX:t=P:problem=mixed beam	!	!	!
(8C#/L 8CC#^>/	(8c#^\L	.	.	8ryy	.	16eee\LL 16aa\	.	.	.
.	.	.	.	.	.	16ee\JJ	.	.	.
8AA/J 8AAA'/)	8A\J 8E'\)	.	.	16ff#\LL 16cc#\	.	8ryy	.	.	.
.	.	.	.	16a\JJ	.	.	.	.	.
=131	=131	=131	=131	=131	=131	=131	=131	=131	=131
*	*	*	*	*	*	*8va	*	*	*
!	!	!	!	!	!	!LO:TX:t=P:problem=mixed beam	!	!	!
8EE/L 8EEE'/	8E'\L	.	.	8ryy	.	16eeee\LL 16aaa\	.	.	.
.	.	.	.	.	.	16eee\JJ	.	.	.
*	*	*	*	*	*	*X8va	*	*	*
8EE/J 8EEE'/	8E'\J	.	.	16fff#\LL 16ccc#\	.	8ryy	.	.	.
.	.	.	.	16aa\JJ	.	.	.	.	.
!	!	!	!	!	!	!LO:TX:t=P:problem=mixed beam	!	!	!
(8AA/L 8AAA^/	(8A^\L	.	.	8ryy	.	16eee\LL 16aa\	.	.	.
.	.	.	.	.	.	16ee\JJ	.	.	.
16C#/L 16CC#/	16c#\L	.	.	16ff#\LL 16cc#\	.	8ryy	.	.	.
16EE/JJ	16e\JJ 16E\	.	.	16a\JJ	.	.	.	.	.
=132	=132	=132	=132	=132	=132	=132	=132	=132	=132
*	*	*	*	*	*	*8va	*	*	*
!	!	!	!	!	!	!LO:TX:t=P:problem=mixed beam	!	!	!
8D/L 8DD'/)	8d'\L)	.	.	8ryy	.	16eeee\LL 16ggg#\	.	.	.
.	.	.	.	.	.	16eee\JJ	.	.	.
*	*	*	*	*	*	*X8va	*	*	*
8BB/J 8BBB'/	8B\J 8E'\	.	.	16ddd\LL 16bb\	.	8ryy	.	.	.
.	.	.	.	16aa\JJ	.	.	.	.	.
!	!	!	!	!	!	!LO:TX:t=P:problem=mixed beam	!	!	!
4E/ 4EE/	4e\ 4c#\	.	.	8ryy	.	16eee\LL 16aa\	.	.	.
.	.	.	.	.	.	16ee\JJ	.	.	.
.	.	.	.	16ff#\LL 16cc#\	.	8ryy	.	.	.
.	.	.	.	16a\JJ	.	.	.	.	.
!	!	!	!	!LO:LB:g=original	!	!	!	!	!
=133	=133	=133	=133	=133	=133	=133	=133	=133	=133
*	*	*	*	*	*	*8va	*	*	*
8F#/L 8FF#'/	8.f#\L 8.d\	.	.	8ddd\L 8ff#'\	.	(16ggg#\LL	1	.	.
.	.	.	.	.	.	16gggg#\	5	.	.
8D/J 8DD'/	.	.	.	8aa\J 8dd'\	.	16ggg#\	1	.	.
.	16d\Jk	.	.	.	.	16fff#\JJ)	2	.	.
8E/L 8EE'/	8.c#\L 8.A\	.	.	8ccc#\L 8ee'\	.	(16fff#\LL	.	.	.
.	.	.	.	.	.	16ffff#\	.	.	.
8C#/J 8CC#'/	.	.	.	8aa\J 8cc#'\	.	16fff#\	.	.	.
.	16A\Jk	.	.	.	.	16eee\JJ)	.	.	.
!LO:LB:g=original	!	!	!	!	!	!	!	!	!
=134	=134	=134	=134	=134	=134	=134	=134	=134	=134
8F#/L 8FF#'/	8d'\L	.	.	8ddd\L 8ff#'\	.	(16ggg#\LL	.	.	.
.	.	.	.	.	.	16gggg#\	.	.	.
8D/J 8DD'/	(16d\L	.	.	8aa\J 8dd'\	.	16ggg#\	.	.	.
.	16f#\JJ	.	.	.	.	16fff#\JJ)	.	.	.
8E/L 8EE'/	8e'\L)	.	.	8ccc#\L 8ee'\	.	(16fff#\LL	.	.	.
.	.	.	.	.	.	16ffff#\	.	.	.
8C#/J 8CC#'/	8c#'\J	.	.	8aa\J 8cc#'\	.	16fff#\	.	.	.
.	.	.	.	.	.	16eee\JJ)	.	.	.
*	*	*	*	*	*	*X8va	*	*	*
=135	=135	=135	=135	=135	=135	=135	=135	=135	=135
4BB/ 4BBB/	8r	.	.	(16dd/LL	.	(16ddd\LL	.	.	.
.	.	.	.	16cc#/	.	16ccc#\	.	.	.
.	8d\ 8F#'\	.	.	16b/	.	16bb\	.	.	.
.	.	.	.	16a/JJ	.	16aa\JJ	.	.	.
4E/ 4EE/	8r	.	.	8g#'/L)	.	8gg#'\L)	.	.	.
!	!LO:SIC:s=8d\ 8G#'\:v	!	!	!	!	!	!	!	!
.	8d\ 8G#\	.	.	8dd/J 8g#'/	.	8ee'\J	.	.	.
=136	=136	=136	=136	=136	=136	=136	=136	=136	=136
8E/L 8EE'/	8d\L 8G#'\	.	.	8dd\L 8g#'\	.	8ff#'\L	.	.	.
8E/J 8EE'/	8d\J 8G#'\	.	.	8dd\J 8g#'\	.	8gg#\J 8ee'\	.	.	.
8.E/L 8.AA^/	8.c#\L 8.A^\	.	.	8.cc#/L 8.a^/	.	8.aa\L 8.ee^\	.	.	.
16BBB/Jk	16BB\Jk	.	.	16B/Jk	.	16b\Jk	.	.	.
=137	=137	=137	=137	=137	=137	=137	=137	=137	=137
8.CC#/L	8.C#/L	.	<	8.c#/L	.	8.cc#\L	.	<	<
16DD/Jk	16D/Jk	.	.	16d/Jk	.	16dd\Jk	.	.	.
8.EE/L	8.E\L	<	.	8.e/L	.	8.ee\L	.	.	.
16FF#/Jk	16F#\Jk	.	.	16f#/Jk	.	16ff#\Jk	.	.	.
!	!	!	!	!LO:LB:g=original	!	!	!	!	!
=138	=138	=138	=138	=138	=138	=138	=138	=138	=138
(16GG#/LL	(16G#\LL	.	.	(16g#/LL	.	(16gg#\LL	.	.	.
16AA/	16A\	.	.	16a/	.	16aa\	.	.	.
16BB/	16B\	.	.	16b/	.	16bb\	.	.	.
16C#/JJ	16c#\JJ	.	.	16cc#/JJ	.	16ccc#\JJ	.	.	.
16D\LL	16d\LL	[	.	16dd\LL	.	16ddd\LL	.	.	.
16E\	16e\	.	.	16ee\	.	16eee\	.	.	.
16F#\	16f#\	.	.	16ff#\	.	16fff#\	.	.	.
16G#\JJ	16g#\JJ	.	[[	16gg#\JJ	.	16ggg#\JJ	.	[[	[[
!LO:LB:g=original	!	!	!	!	!	!	!	!	!
=139	=139	=139	=139	=139	=139	=139	=139	=139	=139
!	!LO:MO:mod=!LO&colon;TX&colon;a&colon;i&colon;t=sempre più animato sine al fine	!	!	!	!	!	!	!	!
!	!null	!	!	!	!	!	!	!	!
!	!	!	!	!	!	!LO:MO:mod=!LO&colon;TX&colon;a&colon;i&colon;t=sempre più animato sine al fine	!	!	!
!	!	!	!	!	!	!LO:TX:a:i:t=sempre piu animato sine al Fine.	!	!	!
8A'\L)	8a'\L)	.	.	8aa'\)	.	8aaa'\)	.	.	.
8E'\J	8e'\J	.	.	8r	.	8r	.	.	.
!	!LO:MO:mod=!null:null	!	!	!	!	!	!	!	!
!	!LO:TX:a:i:t=sempre piu animato sine al Fine.	!	!	!	!	!	!	!	!
[4E#X^\	[4e#X^\	.	.	8r	.	8r	.	.	.
.	.	.	.	8gg#\ 8dd\ 8b'\	.	8ggg#\ 8ddd\ 8bb'\	.	.	.
=140	=140	=140	=140	=140	=140	=140	=140	=140	=140
8E#\L]	8e#\L]	.	.	8aa\ 8cc#'\	.	8aaa\ 8ccc#'\	.	.	.
8En'\J	8en'\J	.	.	8r	.	8r	.	.	.
[4Fn^\	[4fn^\	.	.	8r	.	8r	.	.	.
.	.	.	.	8gg#\ 8dd\ 8b'\	.	8ggg#\ 8ddd\ 8bb'\	.	.	.
=141	=141	=141	=141	=141	=141	=141	=141	=141	=141
8F\L]	8f\L]	.	.	8aa\ 8cc#'\	.	8aaa\ 8ccc#'\	.	.	.
8E'\J	8e'\J	.	.	8r	.	8r	.	.	.
4Fn^\	4fn^\	.	.	8r	.	8r	.	.	.
.	.	.	.	8gg#\ 8dd\ 8b'\	.	8ggg#\ 8ddd\ 8bb'\	.	.	.
=142	=142	=142	=142	=142	=142	=142	=142	=142	=142
8E'\L	8e'\L	>	>	8aa\L 8cc#'\	.	8aaa\L 8ccc#'\	.	>	>
8Fn'\	8fn'\	.	.	8gg#\ 8dd\ 8b'\	.	8ggg#\ 8ddd\ 8bb'\	.	.	.
8E'\	8e'\	.	.	8aa\ 8cc#'\	.	8aaa\ 8ccc#'\	.	.	.
8F'\J	8f'\J	.	.	8gg#\J 8dd\ 8b'\	.	8ggg#\J 8ddd\ 8bb'\	.	.	.
=143	=143	=143	=143	=143	=143	=143	=143	=143	=143
8E'\L	8e'\L	.	.	8aa\L 8cc#'\	.	8aaa\L 8ccc#'\	.	p	.
8E#X'\	8e#X'\	.	.	8gg#\ 8dd\ 8b'\	.	8ggg#\ 8ddd\ 8bb'\	.	.	.
8F#X'\	8f#X'\	.	.	8aa\ 8cc#'\	.	8aaa\ 8ccc#'\	.	.	.
8G#'\J	8g#'\J	.	.	8ff#\J 8dd'\	.	8fff#\J 8ddd'\	.	.	.
*	*clefG2	*	*	*	*	*	*	*	*
!	!	!	!	!LO:LB:g=original	!	!	!	!	!
=144	=144	=144	=144	=144	=144	=144	=144	=144	=144
8A'\L	8a'/L	.	.	8ee\L 8cc#'\	.	8eee\L 8ccc#'\	.	.	.
8A#X'\	8gn'/	.	.	8ee\ 8cc#'\	.	8eee\ 8ccc#'\	.	.	.
8B'\	8f#'/	.	.	8dd\ 8b'\	.	8ddd\ 8bb\	.	.	.
8E'\J	8e/J 8d'/	.	.	8dd\J 8b'\	.	8bb\J 8gg#X'\	.	.	.
!LO:LB:g=original	!	!	!	!	!	!	!	!	!
=145	=145	=145	=145	=145	=145	=145	=145	=145	=145
8A'/L	8e/L 8c#'/	.	.	8cc#\L 8a'\	.	8aa\L 8ee'\	.	>	>
*	*clefF4	*	*	*	*	*	*	*	*
8EE#X'/	8E#X'/	.	.	8dd\ 8b'\	.	8gg#'\	.	.	.
8FF#'/	8F#'/	.	.	8cc#\ 8a'\	.	8aa'\	.	.	.
8GG#'/J	8G#'/J	.	.	8dd\J 8b'\	.	8ff#'\J	.	.	.
=146	=146	=146	=146	=146	=146	=146	=146	=146	=146
8AA'/L	8A'\L	.	.	8cc#/L 8a'/	.	8ee'\L	.	.	.
8AA#X'/	8A#X'\	.	.	8gn'/	.	8ee\ 8cc#'\	.	.	.
8BB'/	8B'\	.	.	8f#'/	.	8dd\ 8b'\	.	.	.
8EEn'/J	8En'\J	.	.	8d'/J	.	8b\J 8g#X'\	.	]]	]]
=147	=147	=147	=147	=147	=147	=147	=147	=147	=147
8AAn'/L	8An'\L	>	>	8c#/	.	8a/ 8e'/	.	.	.
8GG#'/	8G#'\	.	.	8r	.	8r	.	.	.
8AA'/	8A'\	.	.	4r	.	4r	.	.	.
8FF#'/J	8F#'\J	.	.	.	.	.	.	.	.
=148	=148	=148	=148	=148	=148	=148	=148	=148	=148
8EE'/L	8E'\L	.	.	4r	.	4r	.	.	.
8EE'/	8E'\	.	.	.	.	.	.	.	.
8DD'/	8D'\	.	]	8r	.	8r	.	.	.
!	!	!	!	!LO:SIC:s=8ee\ 8dd\ 8b'\^:v	!	!LO:SIC:s=8eee\ 8ddd\ 8gg#'\^:v	!	!	!
8BB/J 8BBB'^/	8d\J 8G#\ 8E'^\	ff ]]	ff	8ee\ 8dd\ 8b'\	.	8eee\ 8ddd\ 8gg#'\	.	ff	ff
=149	=149	=149	=149	=149	=149	=149	=149	=149	=149
!	!	!	!	!LO:SIC:s=8ee\ 8cc#\ 8a'\^:v	!	!LO:SIC:s=8aaa\ 8ccc#\ 8aa'\^:v	!	!	!
8AA/ 8AAA'^/	8c#\ 8A\ 8E'^\	.	.	8ee\ 8cc#\ 8a'\	.	8aaa\ 8ccc#\ 8aa'\	.	.	.
8r	8r	.	.	8r	.	8r	.	.	.
4r;	4r;	.	.	4r;	.	4r;	.	.	.
==	==	==	==	==	==	==	==	==	==
*-	*-	*-	*-	*-	*-	*-	*-	*-	*-
!!!system-decoration: [(s1,s2)][(s3,s4)]
!!!RDF**kern: > = above
!!!RDF**kern: < = below
!!!RDF**dynam: > = dim.
!!!RDF**kern: N = linked
!!!filter-modern: sic -sq | shed -e "s/LO:DY:(a|b|rj)/LO:dy:$1/L" | shed -e "s/TX(.*):t=P:/tx$1:t=P:/LG" | modori -m | autostem -r | shed -e "s/yy//" | shed -k -e "s/\(y([^y])/($1/" | shed -e "s/-//B" | shed -k -e "s/[<>]//g" | shed -k -e "s/:TUP:/:tup:/L" | shed -k -e "s/r[a-gA-G]+/r/D"
!!!ENC: Andrzej Gręziak
!!!END: 2022-02-02
!!!ENC: Leszek Kubiak
!!!END: 2022-02-10
!!!EED-modern: Antoni Szymański
!!!END-modern: 2022-09-29
!!!YEC: Copyright 2022 Narodowy Instytut Fryderyka Chopina (https://polishscores.org)
!!!YEM: License CC-BY-4.0 (https://creativecommons.org/licenses/by/4.0)
